<?xml version="1.0" encoding="UTF-8"?>
<map version="1.5" tiledversion="1.7.2" orientation="orthogonal" renderorder="right-down" width="90" height="32" tilewidth="64" tileheight="64" infinite="0" nextlayerid="8" nextobjectid="61">
 <tileset firstgid="1" source="aa.tsx"/>
 <tileset firstgid="541" source="tiles_1.tsx"/>
 <tileset firstgid="766" source="tile_3.tsx"/>
 <tileset firstgid="1279" source="spritesheet_24.tsx"/>
 <tileset firstgid="1504" source="tile_3.tsx"/>
 <tileset firstgid="2017" source="spritesheet_24.tsx"/>
 <tileset firstgid="2242" source="enem1.tsx"/>
 <layer id="1" name="Слой тайлов 1" width="90" height="32">
  <data encoding="csv">
2135,2120,2120,2225,2225,2225,2225,2240,2240,2241,2226,2240,2225,2225,2225,2240,2240,2240,2240,2225,2225,2226,2225,2225,2225,2225,2225,2225,2225,2225,2225,2225,2225,2226,1352,1352,1352,1352,1352,1353,1352,1367,1352,1353,1353,1353,1353,1353,1352,1353,1353,1353,1353,1353,1353,1353,1353,1353,1353,1353,2225,2225,2225,2225,2225,2225,2225,2225,2225,2226,2120,2120,2120,2120,2120,2120,2120,2120,2121,2135,2120,2120,2121,2136,2136,2136,2121,2121,2121,2121,
2150,2135,2225,2225,2226,2240,2240,2241,2150,2240,2241,2150,2240,2240,2240,2240,2225,2225,2225,2240,2240,2225,2225,2226,2240,2240,2240,2240,2240,2240,2240,2240,2240,2225,2225,2225,2225,2225,2225,2225,2226,1353,1353,1368,1368,1368,1368,1368,1353,1368,1368,1368,1368,1368,1368,1368,1368,1368,1368,2225,2240,2240,2240,2240,2240,2240,2240,2240,2240,2225,2225,2225,2226,2135,2135,2135,2135,2120,2121,2150,2135,2120,2121,2151,2151,2151,2136,2136,2136,2136,
2165,2225,2240,2240,2225,2226,2226,2226,2225,2240,2241,2165,2150,2150,2150,2150,2240,2240,2225,2226,2225,2240,2225,2225,2226,2226,2226,2226,2225,2226,2226,2226,2226,2226,2226,2226,2226,2226,2226,2226,2226,2226,2226,2226,2226,2226,2226,2226,2226,2226,2226,2226,2225,2225,2225,2226,1383,1383,1383,2240,2241,2241,2241,2241,2241,2241,2241,2226,2225,2226,2226,2226,2226,2150,2150,2150,2150,2120,2121,2165,2150,2135,2120,2120,2120,2120,2120,2121,2151,2151,
2180,2240,2240,2241,2225,2226,2241,2241,2226,2240,2241,2226,2226,2165,2165,2120,2225,2226,2226,2241,2226,2226,2240,2240,2241,2241,2225,2226,2226,2241,2241,2241,2241,2241,2241,2241,2241,2226,2226,2226,2226,2226,2226,2226,2226,2226,2226,2241,2241,2241,2241,2241,2240,2240,2240,2225,2225,2225,2225,2225,2225,2226,1398,1398,2165,2240,2225,2226,2226,2241,2241,2241,2241,2165,2165,2165,2165,2120,2121,2180,2165,2150,2135,2135,2135,2135,2120,2120,2121,2166,
2195,2240,2241,2136,2240,2225,2226,2240,2241,2241,2240,2241,2226,2225,2226,2226,2226,2241,2241,2225,2225,2225,2225,2225,2225,2226,2226,2241,2241,2225,2225,2225,2225,2225,2225,2225,2240,2241,2241,2241,2241,2241,2241,2241,2241,2241,2241,2226,2226,2226,2226,2226,2226,2226,2226,2226,2226,2226,2226,2226,2226,2241,1413,1413,2225,2226,2226,2241,2241,2225,2240,2240,2241,2121,2121,2121,2121,2121,2121,2121,2180,2165,2150,2150,2150,2150,2135,2120,2120,2121,
2196,2240,2241,2151,2240,2225,2226,2241,2226,2226,2136,2240,2241,2226,2241,2241,2241,2240,2240,2240,2240,2240,2225,2226,2226,2241,2241,2240,2240,2240,2240,2240,2240,2240,2240,2225,2225,2225,2226,2240,2240,2240,2240,2240,2240,2240,2240,2241,2241,2241,2241,2241,2241,2241,2226,2226,2226,2226,2226,2226,2226,2226,2225,2225,2226,2241,2241,2240,2240,2240,2241,2136,2136,2136,2136,2136,2136,2136,2136,2136,2195,2180,2165,2165,2165,2165,2150,2135,2120,2121,
2120,2240,2241,2166,2196,2225,2226,2240,2241,2225,2226,2226,2240,2241,2226,2151,2151,2151,2225,2225,2225,2225,2225,2225,2225,2225,2225,2225,2225,2226,2225,2225,2225,2225,2225,2240,2240,2240,2241,1443,1428,1428,1428,2225,2225,2225,2225,2225,2225,2225,2225,2225,2225,2240,2241,2241,2241,2241,2241,2241,2241,2241,2226,2226,2226,2120,2121,2151,2151,2151,2151,2151,2151,2151,2151,2151,2151,2151,2151,2151,2210,2195,2180,2180,2180,2180,2165,2150,2120,2121,
2225,2240,2241,2181,2196,2240,2225,2226,2225,2226,2241,2241,2241,2240,2241,2226,2226,2225,2240,2240,2240,2240,2240,2240,2240,2225,2226,2226,2226,2226,2240,2240,2240,2240,2240,2241,1457,1457,1457,1458,2225,2226,2226,2226,2240,2240,2240,2240,2240,2240,2240,2240,2240,2240,2240,2241,2226,2226,2240,2240,2241,2240,2241,2241,2226,2226,2226,2166,2166,2166,2166,2166,2166,2166,2166,2166,2166,2166,2166,2166,2120,2120,2120,2120,2120,2120,2120,2121,2120,2121,
2240,2241,2121,2196,2225,2226,2225,2226,2226,2225,2225,2225,2225,2240,2240,2241,2241,2226,2226,2181,2181,2181,2225,2226,2226,2226,2241,2241,2241,2241,2181,2181,2181,2181,2181,1472,1472,1472,2225,2226,2226,2241,2241,2241,1473,1473,2225,2225,2225,2225,2225,2225,2240,2241,2241,2241,2241,2241,1473,1473,1488,1472,1473,2240,2241,2241,2241,2181,2181,2181,2181,2181,2181,2181,2181,2181,2181,2181,2181,2181,2135,2135,2135,2135,2135,2135,2120,2120,2121,2121,
2240,2241,2225,2226,2226,2241,2225,2225,2225,2240,2240,2240,2240,2241,2226,2240,2240,2241,2241,2226,2226,2226,2226,2241,2241,2241,2196,2196,2196,2196,2196,2196,2196,2196,2196,1487,1487,2225,2225,2225,2225,2225,2225,2225,2225,2225,2240,2240,2240,2240,2240,2240,2240,2240,2240,2241,1488,1488,1488,1488,1503,1487,1488,1488,2240,2240,2241,2121,2121,2121,2121,2121,2196,2196,2196,2196,2196,2196,2196,2196,2150,2150,2150,2150,2150,2150,2135,2120,2120,2121,
2240,2241,2226,2226,2241,2121,2240,2240,2240,2241,2120,2225,2226,2226,2226,2226,2226,2225,2240,2241,2226,2226,2226,2195,2195,2180,2180,2180,2195,2195,2196,2195,2196,1502,1502,1502,1502,2240,2240,2240,2240,2240,2240,2240,2240,2240,2241,1368,1368,1368,1383,1383,1368,1368,1368,1368,1368,1503,1503,1503,1458,1502,1503,1503,2120,2121,2136,2136,2136,2136,2136,2136,2211,2211,2211,2211,2211,2211,2211,2211,2165,2165,2165,2165,2165,2165,2150,2135,2120,2121,
2241,2226,2226,2241,2121,2136,2136,2136,2121,2121,2225,2225,2225,2225,2225,2225,2225,2240,2240,2240,2241,2241,2241,2226,2135,2195,2195,2195,2196,2120,2121,2121,2142,2140,2141,2165,1502,1503,1503,1503,1367,1368,1398,1398,1398,1398,1398,1383,1383,2120,2120,2120,2120,2120,2120,2120,2120,2121,1502,1503,1352,1353,1353,1353,2120,2121,2151,2151,2151,2151,2151,2151,2180,2180,2180,2180,2180,2180,2210,2211,2180,2180,2180,2180,2180,2180,2165,2150,2120,2121,
2241,2241,2241,2121,2136,2151,2151,2151,2136,2136,2240,2240,2240,2240,2240,2240,2240,2241,2150,2150,2150,2240,2240,2241,2226,2150,2150,2151,2150,2120,2120,2120,2120,2121,2120,2121,2165,2165,2165,2165,1367,1368,1413,1413,1413,1413,1413,1398,1398,2135,2135,2135,2135,2135,2135,2135,2135,2136,1503,1413,1353,1353,1368,2120,2121,2121,2166,2166,2166,2166,2166,2166,2195,2195,2195,2195,2195,2195,2210,2211,2121,2121,2121,2121,2121,2121,2121,2121,2120,2121,
2165,2135,2135,2120,2120,2121,2166,2166,2151,2151,2165,2165,2165,2165,2165,2165,2165,2165,2165,2165,2165,2165,2240,2241,2241,2165,2165,2166,2165,2135,2135,2120,2135,2136,2121,2136,2165,2165,2165,2242,2165,1368,1428,1428,1428,1428,1428,1413,1413,2150,2150,2150,2150,2150,2150,2150,2150,2151,1503,1428,1368,1368,1383,2120,2121,2136,2181,2181,2181,2181,2181,2181,2210,2210,2210,2210,2210,2210,2210,2211,2136,2136,2136,2136,2136,2136,2136,2136,2120,2121,
2180,2120,2121,2135,2120,2120,2120,2121,2166,2166,2180,2180,2180,2180,2180,2180,2180,2180,2180,2180,2180,2180,2180,2180,2180,2180,2180,2181,2165,2150,2150,2135,2150,2151,2121,2151,2165,2165,2143,2141,1367,1367,1368,1443,1443,1443,1443,1428,1428,2165,2165,2165,2165,2165,2165,2165,2165,2166,1368,1443,1383,1383,1398,2120,2121,2151,2196,2196,2196,2196,2196,2196,2166,2151,2151,2151,2151,2151,2151,2151,2151,2151,2151,2151,2151,2151,2151,2151,2120,2121,
2195,2135,2120,2120,2120,2120,2120,2120,2120,2121,2195,2195,2195,2195,2195,2195,2195,2195,2195,2195,2195,2195,2195,2195,2195,2195,2195,2196,2166,2165,2165,2150,2165,2166,2121,2165,2165,2121,2121,2121,1382,1367,1368,1458,1458,1458,1458,1443,1443,2180,2180,2180,2180,2180,2180,2180,2180,2181,1383,1458,1398,1398,1413,2120,2121,2166,2211,2211,2211,2211,2211,2211,2181,2166,2166,2166,2166,2166,2166,2166,2166,2166,2166,2166,2166,2166,2166,2166,2120,2121,
2195,2150,2135,2135,2135,2135,2135,2135,2135,2136,2195,2196,2196,2196,2196,2121,2195,2196,2196,2196,2196,2196,2181,2181,2151,2151,2151,2165,2166,2151,2136,2165,2165,2166,2121,2136,2136,2136,2136,2136,1397,1367,1368,2142,2143,1457,1458,1458,1458,2195,2195,2195,2195,2195,2195,2195,2195,2196,1398,1473,1413,1413,1428,2120,2121,2181,2165,2165,2165,2165,2210,2211,2196,2181,2181,2181,2181,2181,2181,2181,2181,2181,2181,2181,2181,2181,2181,2181,2121,2121,
2120,2121,2150,2150,2150,2150,2150,2150,2150,2120,2165,2165,2165,2165,2165,2165,2165,2165,2165,2165,2165,2165,2196,2196,2151,2151,2151,2165,2166,2166,2151,2151,2136,2121,2120,2121,2151,2151,2151,2151,1368,1368,1368,1368,1368,1368,1946,1817,2170,2210,2210,2210,2210,2210,2210,2210,2210,2211,1413,1488,1428,1428,1443,2120,2121,2196,2180,2180,2180,2180,2210,2211,2211,2196,2196,2196,2196,2196,2196,2196,2196,2196,2196,2196,2196,2196,2196,2196,2136,2136,
2120,2121,2165,2165,2165,2165,2165,2165,2165,2135,2165,2165,2165,2165,2165,2165,2165,2165,2165,2165,2165,2165,2151,2151,2151,2151,2151,2151,2165,2165,2166,2166,2151,2136,2120,2120,2120,2121,2121,2166,2106,1367,2106,2106,1383,1383,1973,1844,2213,2170,2210,2211,2211,2196,2181,2166,2166,2121,2121,2121,2121,2121,2121,2121,2121,2211,2195,2195,2195,2195,2210,2211,2211,2211,2211,2211,2211,2211,2211,2211,2211,2211,2211,2211,2211,2211,2211,2211,2151,2151,
2120,2120,2120,2120,2120,2120,2120,2120,2121,2150,2165,2165,2165,2165,2165,2165,2165,2165,2165,2165,2165,2165,2151,2151,2151,2151,2151,2151,2165,2165,2135,2165,2166,2151,2135,2135,2120,2121,2136,2166,2106,2106,2106,1398,1398,1398,1973,1871,2195,2213,2170,2210,2211,2211,2196,2181,2181,2136,2136,2136,2136,2136,2136,2136,2136,2210,2210,2210,2210,2210,2210,2211,2136,2136,2136,2136,2136,2136,2136,2136,2136,2136,2210,2211,2166,2166,2166,2166,2166,2166,
2135,2135,2135,2135,2135,2135,2135,2120,2120,2165,2165,2166,2165,2165,2165,2165,2165,2165,2165,2165,2165,2165,2165,2165,2165,2165,2165,2165,2165,2165,2150,2150,2165,2166,2121,2121,2120,2121,2151,2136,2106,2106,2106,2106,1413,1413,1973,1898,2120,2121,2213,2170,2210,2211,2211,2196,2196,2151,2151,2151,2151,2151,2151,2151,2151,2211,2151,2151,2151,2151,2151,2151,2151,2151,2151,2151,2151,2151,2151,2151,2151,2151,2210,2211,2181,2181,2181,2181,2181,2181,
2150,2150,2150,2150,2150,2150,2150,2135,2135,2180,2165,2165,2165,2165,2165,2165,2165,2165,2165,2165,2165,2165,2165,2165,2165,2165,2150,2165,2166,2165,2165,2165,2165,2166,2136,2136,2121,2121,2166,2151,2121,2121,2121,1428,1428,1428,1973,1925,2120,2121,2195,2213,2170,2210,2211,2211,2211,2166,2166,2166,2166,2166,2166,2166,2166,2211,2166,2166,2166,2166,2166,2166,2166,2166,2166,2166,2166,2166,2166,2166,2166,2166,2210,2211,2196,2196,2196,2196,2196,2196,
2165,2165,2165,2165,2165,2165,2165,2150,2150,2195,2165,2165,2165,2165,2165,2165,2165,2165,2165,2165,2165,2165,2165,2165,2165,2165,2165,2165,2166,2165,2151,2151,2151,2151,2151,2151,2136,2136,2166,2166,2136,2136,2136,1443,1443,1443,1973,1952,2120,2120,2120,2121,2213,2170,2210,2211,2211,2181,2181,2181,2181,2181,2181,2181,2181,2211,2181,2181,2181,2181,2181,2181,2181,2181,2181,2181,2181,2181,2181,2181,2181,2181,2210,2211,2211,2211,2211,2211,2211,2211,
2180,2180,2180,2180,2180,2180,2180,2165,2165,2195,2165,2165,2165,2165,2165,2165,2165,2165,2165,2165,2165,2165,2165,2165,2165,2165,2165,2165,2165,2165,2166,2166,2166,2166,2166,2166,2151,2151,2166,2151,2151,2151,2151,1458,1458,1458,1973,1979,2135,2135,2135,2136,2195,2213,2170,2210,2211,2196,2196,2196,2196,2196,2196,2196,2196,2211,2196,2196,2196,2196,2196,2196,2196,2196,2196,2196,2196,2196,2196,2196,2196,2196,2196,2196,2196,2196,2196,2196,2196,2196,
2195,2195,2195,2195,2195,2195,2195,2180,2180,2195,2165,2165,2165,2165,2165,2165,2165,2165,2165,2165,2165,2165,2165,2165,2165,2165,2165,2165,2165,2165,2165,2165,2165,2165,2165,2166,2166,2166,2166,2166,2166,2166,2166,1457,1458,1457,1973,2006,2150,2150,2242,2242,2242,2195,609,2210,2211,2211,2211,2211,2211,2211,2211,2211,2211,2211,2211,2211,2211,2211,2211,2211,2211,2211,2211,2211,2211,2211,2211,2211,2211,2211,2211,2211,2211,2211,2211,2211,2211,2211,
2023,2023,2023,2023,2023,2023,2023,2023,2023,2023,2023,2023,2023,2023,2023,2023,2023,2023,2023,2023,2023,2023,2023,2023,2023,2023,2023,2023,2023,2023,2023,2023,2023,2023,2023,2023,2023,2023,2023,2023,2023,2023,2023,2023,2023,2023,2023,2023,2023,2023,2023,2023,2023,2023,2023,2023,2023,2023,2023,2023,2023,2023,2023,2023,2023,2023,2023,2023,2023,2023,2023,2023,2023,2023,2023,2023,2023,2023,2023,2023,2023,2023,2023,2023,2023,2023,2023,2023,2023,2023,
604,605,604,605,604,605,604,605,604,605,604,605,604,605,604,605,604,605,604,605,604,605,604,605,604,605,604,605,604,605,604,605,604,605,604,605,604,605,604,605,604,605,604,605,589,590,604,605,604,605,604,605,589,589,589,589,589,604,541,542,604,604,661,662,2107,2107,2188,2188,2188,2188,2188,2188,2188,2188,2188,2188,2188,2188,2188,2188,2188,2188,2188,2188,2188,2188,2188,2188,2188,2107,
661,662,604,662,661,662,604,662,661,661,661,661,661,541,542,662,661,662,661,662,661,544,544,662,604,662,541,542,661,662,661,604,661,662,604,544,544,544,544,662,541,542,543,544,545,586,587,588,586,587,587,661,662,586,586,587,588,586,556,557,662,587,676,677,2107,2107,2188,2188,2188,2188,2188,2188,2188,2188,2188,2188,2188,2188,2188,2188,2188,2188,2188,2188,2188,2188,2188,2188,2188,2107,
676,677,676,677,676,677,676,677,676,676,604,676,661,556,557,544,676,677,676,604,676,559,544,544,676,677,556,557,676,677,604,677,676,677,676,559,559,544,544,677,556,557,558,559,560,604,602,603,601,602,587,676,586,587,661,662,588,601,601,676,677,602,676,677,2107,2107,2188,2188,2188,2188,2188,2188,2188,2188,2188,2188,2188,2188,2188,2188,2188,2188,2188,2188,2188,2188,2188,2188,2188,2107,
661,662,661,541,542,662,604,662,661,662,661,662,661,544,661,559,544,662,541,542,661,662,559,544,544,661,662,661,662,661,559,544,544,544,544,662,559,559,559,662,571,572,573,661,662,661,662,588,601,541,542,602,586,587,676,604,603,661,662,601,601,602,676,677,2107,2107,2188,2188,2188,2188,2188,2188,2188,2188,2188,2188,2188,2188,2188,2188,2188,2188,2188,2188,2188,2188,2188,2188,2188,2107,
661,589,661,556,557,662,662,662,662,589,661,661,662,559,661,661,544,661,556,557,661,661,604,559,559,661,661,661,604,661,661,559,541,542,559,661,604,662,661,662,586,661,662,676,677,676,677,661,662,556,557,603,601,602,603,545,560,676,677,560,560,560,661,662,2107,2107,2107,2107,2107,2188,2188,2188,2107,2188,2107,2107,2107,2107,2107,2107,2107,2107,2107,2107,2107,2107,2107,2107,2137,2107,
676,677,676,677,677,677,677,604,677,677,676,676,589,676,676,676,559,676,676,676,676,676,676,676,677,676,676,676,676,676,676,676,556,557,676,676,676,677,676,604,601,676,677,603,560,560,604,676,677,575,575,560,560,560,560,560,575,575,575,575,575,575,676,677,2107,2107,2188,2188,2188,2188,2188,2188,2188,2188,2188,2188,2188,2188,2188,2188,2188,2188,2188,2188,2188,2188,2188,2188,2188,2188
</data>
 </layer>
 <layer id="5" name="Money" width="90" height="32">
  <data encoding="csv">
0,0,0,0,0,0,0,0,0,0,0,0,0,0,0,0,0,0,0,0,0,0,0,0,0,0,0,0,0,0,0,0,0,0,0,0,0,0,0,0,0,0,0,0,0,0,0,0,0,0,0,0,0,0,0,0,0,0,0,0,0,0,0,0,0,0,0,0,0,0,0,0,0,0,0,0,0,0,0,0,0,0,0,0,0,0,0,0,0,0,
0,0,0,0,0,0,0,0,0,0,0,0,0,0,0,0,0,0,0,0,0,0,0,0,0,0,0,0,0,0,0,0,0,0,0,0,0,0,0,0,0,0,0,0,0,0,0,0,0,0,0,0,0,0,0,0,0,0,0,0,0,0,0,0,0,0,0,0,0,0,0,0,0,0,0,0,0,0,0,0,0,0,0,0,0,0,0,0,0,0,
0,0,0,0,0,0,0,0,0,0,0,0,0,0,0,0,0,0,0,0,0,0,0,0,0,0,0,0,0,0,0,0,0,0,0,0,0,0,0,0,0,0,0,0,0,0,0,0,0,0,0,0,0,0,0,0,0,0,0,0,0,0,0,0,0,0,0,0,0,0,0,0,0,0,0,0,0,0,0,0,0,0,0,0,0,0,0,0,0,0,
0,0,0,0,0,0,0,0,0,0,0,0,0,0,0,0,0,0,0,0,0,0,0,0,0,0,0,0,0,0,0,0,0,0,0,0,0,0,0,0,0,0,0,0,0,0,0,0,0,0,0,0,0,0,0,0,0,0,0,0,0,0,0,0,0,0,0,0,0,0,0,0,0,0,0,0,0,0,0,0,0,0,0,0,0,0,0,0,0,0,
0,0,0,0,0,0,0,0,0,0,0,0,0,0,0,0,0,0,0,0,0,0,0,0,0,0,0,0,0,0,0,0,0,0,0,0,0,0,0,0,0,0,0,0,0,0,0,0,0,0,0,0,0,0,0,0,0,0,0,0,0,0,0,0,0,0,0,0,0,0,0,0,0,0,0,0,0,0,0,0,0,0,0,0,0,0,0,0,0,0,
0,0,0,0,0,0,0,0,0,0,0,0,0,0,0,0,0,0,0,0,0,0,0,0,0,0,0,0,0,0,0,0,0,0,0,0,0,0,0,0,0,0,0,0,0,0,0,0,0,0,0,0,0,0,0,0,0,0,0,0,0,0,0,0,0,0,0,0,0,0,0,0,0,0,0,0,0,0,0,0,0,0,0,0,0,0,0,0,0,0,
0,0,0,0,0,0,0,0,0,0,0,0,0,0,0,0,0,0,0,0,0,0,0,0,0,0,0,0,0,0,0,0,0,0,0,0,0,0,0,0,0,0,0,0,0,0,0,0,0,0,0,0,0,0,0,0,0,0,0,0,0,0,0,0,0,0,0,0,0,0,0,0,0,0,0,0,0,0,0,0,0,0,0,0,0,0,0,0,0,0,
0,0,0,0,0,0,0,0,0,0,0,0,0,0,0,0,0,0,0,0,0,0,0,0,0,0,0,0,0,0,0,0,0,0,0,0,0,0,0,0,0,0,0,0,0,0,0,0,0,0,0,0,0,0,0,0,0,0,0,0,0,0,0,0,0,0,0,0,0,0,0,0,0,0,0,0,0,0,0,0,0,0,0,0,0,0,0,0,0,0,
0,0,0,0,0,0,0,0,0,0,0,0,0,0,0,0,0,0,0,0,0,0,0,0,0,0,0,0,0,0,0,0,0,0,0,0,0,0,0,0,0,0,0,0,0,0,0,0,0,0,0,0,0,0,0,0,0,0,0,0,0,0,0,0,0,0,0,0,0,0,0,0,0,0,0,0,0,0,0,0,0,0,0,0,0,0,0,0,0,0,
0,0,0,0,0,0,0,0,0,0,0,0,0,0,0,0,0,0,0,0,0,0,0,0,0,0,0,0,0,0,0,0,0,0,0,0,0,0,0,0,0,0,0,0,0,0,0,0,0,0,0,0,0,0,0,0,0,0,0,0,0,0,0,0,0,0,0,0,0,0,0,0,0,0,0,0,0,0,0,0,0,0,0,0,0,0,0,0,0,0,
0,0,0,0,0,0,0,0,0,0,0,0,0,0,0,0,0,0,0,0,0,0,0,0,0,0,0,0,0,0,0,0,0,0,0,0,0,0,0,0,0,0,0,0,0,0,0,0,0,0,0,0,0,0,0,0,0,0,0,0,0,0,0,0,0,0,0,0,0,0,0,0,0,0,0,0,0,0,0,0,0,0,0,0,0,0,0,0,0,0,
0,0,0,0,0,0,0,0,0,0,0,0,0,0,0,0,0,0,0,0,0,0,0,0,0,0,0,0,0,0,0,0,0,0,0,0,0,0,0,0,0,0,0,0,0,0,0,0,0,0,0,0,0,0,0,0,0,0,0,0,0,0,0,0,0,0,0,0,0,0,0,0,0,0,0,0,0,0,0,0,0,0,0,0,0,0,0,0,0,0,
0,0,0,0,0,0,0,0,0,0,0,0,0,0,0,0,0,0,0,0,0,0,0,0,0,0,0,0,0,0,0,0,0,0,0,0,0,0,0,0,0,0,0,0,0,0,0,0,0,0,0,0,0,0,0,0,0,0,0,0,0,0,0,0,0,0,0,0,0,0,0,0,0,0,0,0,0,0,0,0,0,0,0,0,0,0,0,0,0,0,
0,0,0,0,0,0,0,0,0,0,0,0,0,0,0,0,0,0,0,0,0,0,0,0,0,0,0,0,0,0,0,0,0,0,0,0,0,0,0,0,0,0,0,0,0,0,0,0,0,0,0,0,0,0,0,0,0,0,0,0,0,0,0,0,0,0,0,0,0,0,0,0,0,0,0,0,0,0,0,0,0,0,0,0,0,0,0,0,0,0,
0,0,0,0,0,0,0,0,0,0,0,0,0,0,0,0,0,0,0,0,0,0,0,0,0,0,0,0,0,0,0,0,0,0,0,0,0,0,0,0,0,0,0,0,0,0,0,0,0,0,0,0,0,0,0,0,0,0,0,0,0,0,0,0,0,0,0,0,0,0,0,0,0,0,0,0,0,0,0,0,0,0,0,0,0,0,0,0,0,0,
0,0,0,0,0,0,0,0,0,0,0,0,0,0,0,0,0,0,0,0,0,0,0,0,0,0,0,0,0,0,0,0,0,0,0,0,0,0,0,0,0,0,0,0,0,0,0,0,0,0,0,0,0,0,0,0,0,0,0,0,0,0,0,0,0,0,0,0,0,0,0,0,0,0,0,0,0,0,0,0,0,0,0,0,0,0,0,0,0,0,
0,0,0,0,0,0,0,0,0,0,0,0,0,0,0,0,0,0,0,0,0,0,0,0,0,0,0,0,0,0,0,0,0,0,0,0,0,0,0,0,0,0,0,0,0,0,0,0,0,0,0,0,0,0,0,0,0,0,0,0,0,0,0,0,0,0,0,0,0,0,0,0,0,0,0,0,0,0,0,0,0,0,0,0,0,0,0,0,0,0,
0,0,0,0,0,0,0,0,0,0,0,0,0,0,0,0,0,0,0,0,0,0,0,0,0,0,0,0,0,0,0,0,0,0,0,0,0,0,0,0,0,0,0,0,0,0,0,0,0,0,0,0,0,0,0,0,0,0,0,0,0,0,0,0,0,0,0,0,0,0,0,0,0,0,0,0,0,0,0,0,0,0,0,0,0,0,0,0,0,0,
0,0,0,0,0,0,0,0,0,0,0,0,0,0,0,0,0,0,0,0,0,0,0,0,0,0,0,0,0,0,0,0,0,0,0,0,0,0,0,0,0,0,0,0,0,0,0,0,0,0,0,0,0,0,0,0,0,0,0,0,0,0,0,0,0,0,0,0,0,0,0,0,0,0,0,0,0,0,0,0,0,0,0,0,0,0,0,0,0,0,
0,0,0,0,0,0,0,0,0,0,0,0,0,0,0,0,0,0,0,0,0,0,0,0,0,0,0,0,0,0,0,0,0,0,0,0,0,0,0,0,0,0,0,0,0,0,0,0,0,0,0,0,0,0,0,0,0,0,0,0,0,0,0,0,0,0,0,0,0,0,0,0,0,0,0,0,0,0,0,0,0,0,0,0,0,0,0,0,0,0,
0,0,0,0,0,0,0,0,0,0,0,0,0,0,0,0,0,0,0,0,0,0,0,0,0,0,0,0,0,0,0,0,0,0,0,0,0,0,0,0,0,0,0,0,0,0,0,0,0,0,0,0,0,0,0,0,0,0,0,0,0,0,0,0,0,0,0,0,0,0,0,0,0,0,0,0,0,0,0,0,0,0,0,0,0,0,0,0,0,0,
0,0,0,0,0,0,0,0,0,0,0,0,0,0,0,0,0,0,0,0,0,0,0,0,0,0,0,0,0,0,0,0,0,0,0,0,0,0,0,0,0,0,0,0,0,0,0,0,0,0,0,0,0,0,0,0,0,0,0,0,0,0,0,0,0,0,0,0,0,0,0,0,0,0,0,0,0,0,0,0,0,0,0,0,0,0,0,0,0,0,
0,0,0,0,0,0,0,0,0,0,0,0,0,0,0,0,0,0,0,0,0,0,0,0,0,0,0,0,0,0,0,0,0,0,0,0,0,0,0,0,0,0,0,0,0,0,0,0,0,0,0,0,0,0,0,0,0,0,0,0,0,0,0,0,0,0,0,0,0,0,0,0,0,0,0,0,0,0,0,0,0,0,0,0,0,0,0,0,0,0,
0,0,0,0,0,0,0,0,0,0,0,0,0,0,0,0,0,0,0,0,0,0,0,0,0,0,0,0,0,0,0,0,0,0,0,0,0,0,0,0,0,0,0,0,0,0,0,0,0,0,0,0,0,0,0,0,0,0,0,0,0,0,0,0,0,0,0,0,0,0,0,0,0,0,0,0,0,0,0,0,0,0,0,0,0,0,0,0,0,0,
0,0,0,0,0,0,0,0,0,0,0,0,0,0,0,0,0,0,0,0,0,0,0,0,0,0,0,0,0,0,0,0,0,0,0,0,0,0,0,0,0,0,0,0,0,0,0,0,0,0,0,0,0,0,0,0,0,0,0,0,0,0,0,0,0,0,0,0,0,0,0,0,0,0,0,0,0,0,0,0,0,0,0,0,0,0,0,0,0,0,
0,0,0,0,0,0,0,0,0,0,0,0,0,0,0,0,0,0,0,0,0,0,0,0,0,0,0,0,0,0,0,0,0,0,0,0,0,0,0,0,0,0,0,0,0,0,0,0,0,0,0,0,0,0,0,0,0,0,0,0,0,0,0,0,0,0,0,0,0,0,0,0,0,0,0,0,0,0,0,0,0,0,0,0,0,0,0,0,0,0,
0,0,0,0,0,0,0,0,0,0,0,0,0,0,0,0,0,0,0,0,0,0,0,0,0,0,0,0,0,0,0,0,0,0,0,0,0,0,0,0,0,0,0,0,0,0,0,0,0,0,0,0,0,0,0,0,0,0,0,0,0,0,0,0,0,0,0,0,0,0,0,0,0,0,0,0,0,0,0,0,0,0,0,0,0,0,0,0,0,0,
0,0,0,0,0,0,0,0,0,0,0,0,0,0,0,0,0,0,0,0,0,0,0,0,0,0,0,0,0,0,0,0,0,0,0,0,0,0,0,0,0,0,0,0,0,0,0,0,0,0,0,0,0,0,0,0,0,0,0,0,0,0,0,0,0,0,0,0,0,0,0,0,0,0,0,0,0,0,0,0,0,0,0,0,0,0,0,0,0,0,
0,0,0,0,0,0,0,0,0,0,0,0,0,0,0,0,0,0,0,0,0,0,0,0,0,0,0,0,0,0,0,0,0,0,0,0,0,0,0,0,0,0,0,0,0,0,0,0,0,0,0,0,0,0,0,0,0,0,0,0,0,0,0,0,0,0,0,0,0,0,0,0,0,0,0,0,0,0,0,0,0,0,0,0,0,0,0,0,0,0,
0,0,0,0,0,0,0,0,0,0,0,0,0,0,0,0,0,0,0,0,0,0,0,0,0,0,0,0,0,0,0,0,0,0,0,0,0,0,0,0,0,0,0,0,0,0,0,0,0,0,0,0,0,0,0,0,0,0,0,0,0,0,0,0,0,0,0,0,0,0,0,0,0,0,0,0,0,0,0,0,0,0,0,0,0,0,0,0,0,0,
0,0,0,0,0,0,0,0,0,0,0,0,0,0,0,0,0,0,0,0,0,0,0,0,0,0,0,0,0,0,0,0,0,0,0,0,0,0,0,0,0,0,0,0,0,0,0,0,0,0,0,0,0,0,0,0,0,0,0,0,0,0,0,0,0,0,0,0,0,0,0,0,0,0,0,0,0,0,0,0,0,0,0,0,0,0,0,0,0,0,
0,0,0,0,0,0,0,0,0,0,0,0,0,0,0,0,0,0,0,0,0,0,0,0,0,0,0,0,0,0,0,0,0,0,0,0,0,0,0,0,0,0,0,0,0,0,0,0,0,0,0,0,0,0,0,0,0,0,0,0,0,0,0,0,0,0,0,0,0,0,0,0,0,0,0,0,0,0,0,0,0,0,0,0,0,0,0,0,0,0
</data>
 </layer>
 <objectgroup id="2" name="test">
  <object id="2" name="wall" x="0.363636" y="1602.15" width="64" height="445.848"/>
  <object id="4" name="wall" x="65.6667" y="1601.09" width="5630.24" height="64"/>
  <object id="6" name="wall" x="5696.58" y="1602.12" width="64" height="444"/>
  <object id="7" name="player" x="3776" y="1544" width="64" height="64"/>
  <object id="11" name="wall" x="3072" y="1100" width="64" height="56"/>
  <object id="12" name="wall" x="3136" y="1164" width="64" height="53.3333"/>
  <object id="13" name="wall" x="3200" y="1229" width="64" height="50"/>
  <object id="14" name="wall" x="3264" y="1292" width="64" height="56"/>
  <object id="15" name="wall" x="3328" y="1356" width="64" height="53.3333"/>
  <object id="16" name="wall" x="3392" y="1420" width="64" height="56"/>
  <object id="17" name="wall" x="3456" y="1485" width="64" height="115"/>
  <object id="22" name="ladder" x="2983.76" y="1099.09" width="67.0303" height="508"/>
  <object id="27" name="money" x="3664" y="1558.67" width="32" height="32"/>
  <object id="30" name="money" x="3281.33" y="1238.67" width="32" height="32"/>
  <object id="31" name="money" x="3218.67" y="1176" width="32" height="32"/>
  <object id="37" name="money" x="2836.67" y="976" width="32" height="32"/>
  <object id="39" name="money" x="3149.33" y="1112" width="32" height="32"/>
  <object id="33" name="money" x="1228" y="1301.33" width="32" height="32"/>
  <object id="34" name="money" x="1092" y="1250.67" width="32" height="32"/>
  <object id="35" name="money" x="961.333" y="1253.33" width="32" height="32"/>
  <object id="36" name="money" x="457.333" y="1550.67" width="32" height="32"/>
  <object id="40" name="wall" x="2049.33" y="704.485" width="190.848" height="54.6667"/>
  <object id="41" name="wall" x="2431.67" y="895.333" width="129.666" height="54.6667"/>
  <object id="42" name="money" x="2100.67" y="618" width="32" height="32"/>
  <object id="43" name="money" x="2071.33" y="666" width="32" height="32"/>
  <object id="44" name="money" x="2131.67" y="666.333" width="32" height="32"/>
  <object id="52" name="wall" x="2754.52" y="1023.12" width="125.333" height="49.6667"/>
  <object id="54" name="shipp" x="2527" y="833">
   <polygon points="0.5,34.5 20.5,61.5 -18.5,62.5"/>
  </object>
  <object id="56" name="shipp" x="3231" y="1539">
   <polygon points="0.5,34.5 20.5,61.5 -18.5,62.5"/>
  </object>
  <object id="59" name="shipp" x="3296" y="1538">
   <polygon points="0.5,34.5 20.5,61.5 -18.5,62.5"/>
  </object>
  <object id="60" name="shipp" x="3360" y="1537">
   <polygon points="0.5,34.5 20.5,61.5 -18.5,62.5"/>
  </object>
 </objectgroup>
</map>
