<?xml version="1.0" encoding="UTF-8"?>
<map version="1.5" tiledversion="1.7.2" orientation="orthogonal" renderorder="right-down" width="90" height="32" tilewidth="64" tileheight="64" infinite="0" nextlayerid="4" nextobjectid="69">
 <tileset firstgid="1" source="enem1.tsx"/>
 <tileset firstgid="2" source="tile_3.tsx"/>
 <tileset firstgid="515" source="tiles_1.tsx"/>
 <tileset firstgid="740" source="spritesheet_24.tsx"/>
 <tileset firstgid="965" source="spritesheet_24_snow.tsx"/>
 <layer id="1" name="Слой тайлов 1" width="90" height="32">
  <data encoding="csv">
828,829,828,828,828,828,828,828,828,828,858,858,858,873,873,873,873,858,858,858,843,843,843,828,828,828,1105,1105,1105,843,843,843,843,843,843,843,828,828,828,828,828,828,828,828,828,828,829,828,828,828,829,829,829,829,829,829,829,858,858,858,858,858,873,873,873,873,873,873,858,858,858,858,858,858,843,843,843,843,828,828,828,829,829,859,859,859,844,844,844,844,
828,829,828,843,843,843,843,843,843,843,873,873,873,888,888,888,888,873,873,873,858,858,858,843,843,843,828,828,828,858,858,858,858,858,858,858,843,843,843,843,843,843,843,843,843,843,828,828,828,829,829,844,844,844,844,844,844,873,873,873,873,873,888,888,888,888,888,888,873,873,873,873,873,873,858,858,858,858,843,843,828,829,844,829,874,874,859,859,859,859,
828,829,828,858,858,858,858,828,829,829,888,888,888,903,903,903,903,888,888,888,873,873,873,858,858,858,843,843,843,873,873,873,873,873,873,873,858,858,858,858,858,858,858,828,829,829,829,829,829,829,828,829,828,828,828,828,828,888,888,888,888,888,903,903,903,903,903,903,888,888,888,888,888,888,873,873,873,873,858,858,828,829,859,844,843,843,843,844,874,874,
828,829,843,873,873,828,828,829,844,844,903,903,903,918,918,918,918,903,903,903,888,888,2147484620,971,971,971,972,858,858,888,888,888,888,888,888,888,873,873,873,873,873,873,873,843,844,844,844,844,844,844,829,829,843,843,843,843,843,903,903,903,903,903,918,918,918,918,918,918,903,903,903,903,903,903,888,888,888,888,873,873,828,828,829,859,858,858,843,843,844,889,
828,829,858,888,888,843,843,828,828,828,918,918,918,919,889,889,874,918,918,918,903,903,2147484810,1161,1161,1161,471,396,873,903,903,903,903,903,903,903,888,888,888,888,888,888,888,858,859,859,859,859,859,859,844,844,829,829,858,858,858,918,918,918,918,918,919,904,904,904,904,904,918,918,918,918,918,918,903,903,903,903,888,888,843,843,828,829,873,873,858,843,843,844,
828,828,873,903,903,858,828,829,829,829,918,919,919,919,904,904,889,889,874,874,918,918,918,903,903,903,471,423,888,918,918,918,918,918,918,918,903,903,903,903,903,903,903,873,874,874,874,874,874,874,859,859,844,844,873,873,873,888,888,888,918,919,919,919,919,919,919,919,919,919,919,829,859,859,918,918,918,918,903,903,858,858,843,828,829,888,873,858,843,844,
828,828,888,918,918,873,828,828,828,828,828,828,828,918,919,919,904,904,889,889,874,859,844,918,918,918,471,450,828,828,828,918,919,919,919,904,918,918,918,918,918,918,918,888,889,889,889,889,889,889,874,874,859,859,888,888,888,903,903,903,903,903,918,918,918,918,918,918,918,919,844,844,874,874,874,874,874,874,918,918,873,873,858,843,828,829,888,873,843,844,
843,843,903,903,903,888,843,843,843,843,843,843,843,843,843,918,919,919,904,904,889,874,859,859,844,829,498,477,843,843,843,828,828,828,918,919,904,904,889,889,889,874,874,903,904,904,904,904,904,904,889,889,874,874,903,903,903,918,918,918,918,918,919,904,904,904,904,904,904,919,859,859,889,889,889,889,889,889,889,889,888,888,873,858,843,828,829,844,843,844,
858,858,918,918,918,903,858,858,858,858,858,858,858,858,858,858,858,918,919,919,904,889,874,874,859,844,844,844,858,858,858,843,843,843,843,918,919,919,904,904,904,889,889,918,919,919,919,919,919,919,904,904,828,828,918,918,918,919,919,919,919,919,919,919,919,919,919,919,919,874,874,874,904,904,904,904,904,904,904,904,903,903,888,873,858,843,828,829,844,844,
873,873,873,873,918,918,873,873,873,873,873,873,873,873,873,873,873,873,873,918,919,904,889,889,874,859,859,859,873,873,873,858,858,858,858,858,858,918,919,919,919,904,904,889,889,874,874,859,859,918,919,919,829,829,829,829,829,844,888,903,918,919,859,859,844,844,844,844,844,889,889,889,919,919,919,919,919,919,919,919,918,918,903,888,828,829,829,829,829,829,
888,888,888,888,918,919,888,888,888,888,888,888,888,888,888,888,888,888,888,888,918,919,904,904,889,874,874,874,828,828,828,828,828,828,828,828,829,888,888,888,918,919,919,904,904,889,889,874,874,874,859,859,844,844,844,844,844,829,829,918,919,874,874,874,859,828,829,829,829,829,829,829,829,829,829,829,829,829,829,829,829,829,829,829,829,844,844,844,844,844,
903,903,903,903,918,919,903,903,903,903,903,903,903,903,903,903,903,903,903,903,903,918,919,919,904,889,889,889,843,843,471,450,843,843,843,843,844,829,903,903,903,903,918,919,919,904,904,889,889,889,874,874,859,859,859,859,859,844,844,829,829,829,829,829,829,829,844,844,844,844,844,844,844,844,844,844,844,844,844,844,844,844,844,844,844,859,859,859,859,859,
918,918,918,918,918,919,918,918,918,918,918,918,918,918,918,918,918,918,918,1090,1091,1089,903,918,919,904,904,904,858,858,498,477,858,858,858,858,859,844,829,829,829,829,1053,1053,918,1053,1053,904,904,904,889,889,874,874,874,874,874,859,859,844,844,844,844,844,844,844,859,859,859,859,859,859,859,859,859,859,859,859,859,859,859,859,859,859,859,874,874,874,874,874,
918,919,919,843,843,844,889,889,874,874,888,888,888,888,888,888,888,888,888,888,888,888,918,918,918,919,919,919,873,873,873,873,873,873,873,873,874,859,1105,1105,1105,1053,1053,1053,1053,1053,1053,1053,919,919,904,904,889,889,889,889,889,874,874,859,859,859,859,859,859,859,874,874,874,874,874,874,874,874,874,874,874,874,874,874,874,874,874,874,874,889,889,889,889,889,
903,843,844,858,843,843,843,844,889,889,903,903,903,903,903,903,903,903,903,903,903,903,903,903,1090,1091,1089,904,888,888,888,888,888,888,888,888,889,874,1105,1105,1105,1053,1053,1053,1053,1053,1053,829,829,918,919,919,904,904,904,904,904,889,889,874,874,874,874,874,874,874,889,889,889,889,889,889,889,828,828,828,828,828,828,828,829,889,889,889,889,904,904,904,904,904,
918,858,843,843,843,843,843,843,843,844,918,918,918,918,918,918,918,918,918,45,918,918,918,918,918,918,471,423,903,903,903,370,371,372,373,374,375,889,1105,1105,1105,1053,1053,1053,1053,1053,1053,844,844,829,829,829,829,829,829,829,919,904,904,889,889,889,889,889,889,889,904,904,904,904,904,904,904,843,843,843,843,843,843,828,828,828,828,828,828,829,828,829,919,919,
918,873,858,858,858,858,858,858,858,859,918,919,919,919,919,844,918,919,919,72,919,919,904,904,874,874,498,450,918,918,918,397,398,399,400,401,402,904,1105,1105,1105,1053,1053,1053,971,972,859,859,859,844,844,844,844,844,844,844,829,829,829,829,829,829,829,829,829,829,829,829,829,829,829,829,829,829,829,829,829,829,829,829,829,829,829,829,829,828,829,829,844,844,
843,844,873,873,873,873,873,873,873,843,888,888,444,315,1090,1091,1091,1091,1091,1091,1089,888,919,919,874,874,874,888,889,889,874,424,425,426,427,428,429,1105,1105,1105,971,971,971,971,986,987,874,874,874,859,859,859,859,859,859,859,844,844,844,844,844,844,844,844,844,844,844,844,844,844,1054,844,844,844,844,844,844,844,844,844,844,844,844,844,844,829,829,829,829,829,
843,844,888,888,888,888,888,888,888,858,888,888,471,342,888,888,888,888,888,888,888,881,881,881,874,874,874,874,888,888,889,451,452,453,454,455,456,1105,1105,1105,1093,1013,1014,1093,986,987,889,889,889,874,874,874,874,874,874,874,859,859,859,859,859,859,859,859,859,859,859,859,859,859,1054,1054,859,859,859,859,859,859,859,859,859,859,859,859,859,844,844,844,844,829,
843,370,371,372,373,374,375,843,844,873,888,888,498,369,888,888,888,888,888,888,888,888,874,2147484620,971,971,971,971,971,881,858,478,479,480,481,482,483,1105,1105,1105,1093,986,986,986,1093,987,904,904,2147484620,889,889,889,889,889,889,370,371,372,373,374,375,874,874,874,874,874,874,874,874,874,874,874,874,874,874,874,874,874,874,874,874,874,874,874,874,859,859,859,859,844,
858,397,398,399,400,401,402,843,843,888,888,889,471,396,888,888,191,192,193,194,888,888,888,2147484635,1013,1014,1093,986,1093,888,873,505,506,507,508,509,510,971,972,1105,1093,986,986,965,966,987,919,919,919,904,904,904,904,904,904,397,398,399,400,401,402,889,889,889,889,889,889,889,889,889,889,889,889,889,889,889,889,889,889,889,889,889,889,889,889,874,874,874,874,859,
873,424,425,426,427,428,429,858,858,903,888,888,471,423,888,888,218,219,220,221,888,888,888,2147484635,1056,1056,1056,1056,1056,971,971,971,971,971,971,971,971,971,987,1053,1024,1093,986,980,981,987,879,879,918,919,919,919,919,919,919,424,425,426,427,428,429,904,904,904,904,904,904,904,904,904,904,904,904,904,904,904,904,904,904,904,904,904,904,904,904,889,889,889,889,874,
888,451,452,453,454,455,456,873,873,918,888,888,471,450,888,888,245,246,247,248,888,888,888,2147484810,1161,1162,1160,1161,1056,1093,1013,1014,1093,986,986,1093,986,1093,987,1105,1105,986,986,1093,1093,987,879,879,843,843,843,844,879,879,879,451,452,453,454,455,456,919,919,919,919,919,919,919,919,919,919,919,919,919,919,919,919,919,919,919,919,919,919,919,919,904,904,904,904,889,
903,478,479,480,481,482,483,888,888,918,2147484620,971,971,971,972,888,272,273,274,275,888,888,888,1053,888,888,888,888,1056,986,986,986,986,1093,1013,1014,986,986,971,971,971,986,1093,1013,1014,987,879,879,858,858,858,859,879,879,879,478,479,480,481,482,483,918,918,918,918,919,918,918,918,918,918,919,919,919,919,919,919,919,919,919,919,919,919,918,918,919,919,919,919,904,
918,505,506,507,508,509,510,903,903,918,2147484410,803,740,741,987,888,299,300,301,302,888,888,888,1053,888,888,888,888,1056,1093,986,1093,986,1093,1093,1093,986,1093,986,1093,1013,1014,1093,1093,1093,987,879,879,879,879,879,879,879,879,879,505,506,507,508,509,510,919,934,934,934,934,934,934,934,934,934,934,934,934,934,934,934,934,934,934,934,934,934,934,934,918,918,918,918,919,
971,971,971,971,971,971,971,971,971,971,761,789,755,756,761,971,971,971,971,971,971,971,971,971,971,971,971,971,989,989,989,989,989,989,989,989,989,989,989,989,989,989,989,989,989,971,971,971,971,971,971,971,971,971,971,971,971,971,971,971,971,971,971,971,971,971,971,971,971,971,971,971,971,971,971,971,971,971,971,971,971,971,971,971,971,971,971,971,971,971,
578,579,578,788,789,579,578,788,578,579,578,579,578,579,578,579,578,788,789,579,578,579,788,579,578,579,578,788,789,579,578,579,578,579,578,579,578,579,788,789,578,579,578,579,563,564,578,579,578,579,578,579,563,563,563,563,563,578,515,516,578,578,635,636,830,830,911,911,911,911,911,911,911,911,911,911,911,911,911,911,911,911,911,911,911,911,911,911,911,830,
635,636,578,636,804,636,578,636,635,635,635,635,635,515,516,636,635,636,804,636,635,518,518,636,578,636,515,516,804,636,635,578,635,636,578,518,518,518,518,804,515,516,517,518,519,560,561,562,560,561,561,635,636,560,560,561,562,560,530,531,636,561,650,651,830,830,911,911,911,911,911,911,911,911,911,911,911,911,911,911,911,911,911,911,911,911,911,911,911,830,
650,651,650,651,650,651,650,651,650,650,578,650,635,530,531,518,650,651,650,578,650,533,518,518,650,651,530,531,650,651,578,651,650,651,650,533,533,518,518,651,530,531,532,533,534,578,576,577,575,576,561,650,560,561,635,636,562,575,575,650,651,576,650,651,830,830,911,911,911,911,911,911,911,911,911,911,911,911,911,911,911,911,911,911,911,911,911,911,911,830,
635,636,635,515,516,636,578,636,635,636,635,636,635,518,635,533,518,636,515,516,635,636,533,518,518,635,636,635,636,635,533,518,518,518,518,636,533,533,533,636,545,546,547,635,636,635,636,562,575,515,516,576,560,561,650,578,577,635,636,575,575,576,650,651,830,830,911,911,911,911,911,911,911,911,911,911,911,911,911,911,911,911,911,911,911,911,911,911,911,830,
635,563,635,530,531,636,636,636,636,563,635,635,636,533,635,635,518,635,530,531,635,635,578,533,533,635,635,635,578,635,635,533,515,516,533,635,578,636,635,636,560,635,636,650,651,650,651,635,636,530,531,577,575,576,577,519,534,650,651,534,534,534,635,636,830,830,830,830,830,911,911,911,830,911,830,830,830,830,830,830,830,830,830,830,830,830,830,830,860,830,
650,651,650,651,651,651,651,578,651,651,650,650,563,650,650,650,533,650,650,650,650,650,650,650,651,650,650,650,650,650,650,650,530,531,650,650,650,651,650,578,575,650,651,577,534,534,578,650,651,549,549,534,534,534,534,534,549,549,549,549,549,549,650,651,830,830,911,911,911,911,911,911,911,911,911,911,911,911,911,911,911,911,911,911,911,911,911,911,911,911
</data>
 </layer>
 <layer id="3" name="Money" width="90" height="32">
  <data encoding="csv">
0,0,0,0,0,0,0,0,0,0,0,0,0,0,0,0,0,0,0,0,0,0,0,0,0,0,0,0,0,0,0,0,0,0,0,0,0,0,0,0,0,0,0,0,0,0,0,0,0,0,0,0,0,0,0,0,0,0,0,0,0,0,0,0,0,0,0,0,0,0,1031,1031,1031,1031,1031,1031,1031,1031,1031,1031,1031,1031,1031,1031,1031,1031,1031,1031,1031,1031,
0,0,0,0,0,0,0,0,0,0,0,0,0,0,0,0,0,0,0,0,0,0,0,0,0,0,0,0,0,0,0,0,0,0,0,0,0,0,0,0,0,0,0,0,0,0,0,0,0,0,0,0,0,0,0,0,0,0,0,0,0,0,0,0,0,0,0,0,0,0,0,0,1031,1031,1031,1031,1031,1031,1031,1031,1031,1031,1031,1031,1031,1031,1031,1031,1031,1031,
0,0,0,0,0,0,0,0,0,0,0,0,0,0,0,0,0,0,0,0,0,0,0,0,0,0,0,0,0,0,0,0,0,0,0,0,0,0,0,0,0,0,0,0,0,0,0,0,0,0,0,0,0,0,0,0,0,0,0,0,0,0,0,0,0,0,0,0,0,0,0,0,0,0,1031,1031,1031,1031,1031,1031,1031,1031,1031,1031,1031,1031,1031,1031,1031,1031,
0,0,0,0,0,0,0,0,0,0,0,0,0,0,0,0,0,0,0,0,0,0,0,0,0,0,0,0,0,0,0,0,0,0,0,0,0,0,0,0,0,0,0,0,0,0,0,0,0,0,0,0,0,0,0,0,0,0,0,0,0,0,0,0,0,0,0,0,0,0,0,0,0,0,0,1031,1031,1031,1031,1031,1031,1031,1031,1031,1031,1031,1031,1031,1031,1031,
0,0,0,0,0,0,0,0,0,0,0,0,0,0,0,0,0,0,0,0,0,0,0,0,0,0,0,0,0,0,0,0,0,0,0,0,0,0,0,0,0,0,0,0,0,0,0,0,0,0,0,0,0,0,0,0,0,0,0,0,0,0,0,0,0,0,0,0,0,0,0,0,0,0,0,0,1031,1031,1031,1031,1031,1031,1031,1031,1031,1031,1031,1031,1031,1031,
0,0,0,0,0,0,0,0,0,0,0,0,0,0,0,0,0,0,0,0,0,0,0,0,0,0,0,0,0,0,0,0,0,0,0,0,0,0,0,0,0,0,0,0,0,0,0,0,0,0,0,0,0,0,0,0,0,0,0,0,0,0,0,0,0,0,0,0,0,0,0,0,0,0,0,0,0,0,1031,1031,1031,1031,1031,1031,1031,1031,1031,1031,1031,1031,
0,0,0,0,0,0,0,0,0,0,0,0,0,0,0,0,0,0,0,0,0,0,0,0,0,0,0,0,0,0,0,0,0,0,0,0,0,0,0,0,0,0,0,0,0,0,0,0,0,0,0,0,0,0,0,0,0,0,0,0,0,0,0,0,0,0,0,0,0,0,0,0,0,0,0,0,0,0,0,1031,1031,1031,1031,1031,1031,1031,1031,1031,1031,1031,
0,0,0,0,0,0,0,0,0,0,0,0,0,0,0,0,0,0,0,0,0,0,0,0,0,0,0,0,0,0,0,0,0,0,0,0,0,0,0,0,0,0,0,0,0,0,0,0,0,0,0,0,0,0,0,0,0,0,0,0,0,0,0,0,0,0,0,0,0,0,0,0,0,0,0,0,0,0,0,0,1031,1031,1031,1031,1031,1031,1031,1031,1031,1031,
0,0,0,0,0,0,0,0,0,0,0,0,0,0,0,0,0,0,0,0,0,0,0,0,0,0,0,0,0,0,0,0,0,0,0,0,0,0,0,0,0,0,0,0,0,0,0,0,0,0,0,0,0,0,0,0,0,0,0,0,0,0,0,0,0,0,0,0,0,0,0,0,0,0,0,0,0,0,0,0,0,1031,1031,1031,1031,1031,1031,1031,1031,1031,
0,0,0,0,0,0,0,0,0,0,0,0,0,0,0,0,0,0,0,0,0,0,0,0,0,0,0,0,0,0,0,0,0,0,0,0,0,0,0,0,0,0,0,0,0,0,0,0,0,0,0,0,0,0,0,0,0,0,0,0,0,0,0,0,0,0,0,0,1090,1091,1089,0,0,0,0,0,0,0,0,0,0,0,1031,1031,1031,1031,1031,1031,1031,1031,
0,0,0,0,0,0,0,0,0,0,0,0,0,0,0,0,0,0,0,0,0,0,0,0,0,0,0,0,0,0,0,0,0,0,0,0,0,0,0,0,0,0,0,0,0,0,0,0,0,0,0,0,0,0,0,0,0,0,0,0,0,0,0,0,0,0,0,0,0,0,0,0,0,0,0,0,0,0,0,0,0,0,1031,1031,1031,1031,1031,1031,1031,1031,
0,0,0,0,0,0,0,0,0,0,0,0,0,0,0,0,0,0,0,0,0,0,0,0,0,0,0,0,0,0,0,0,0,0,0,0,0,0,0,0,0,0,0,0,0,0,0,0,0,0,0,0,0,0,0,0,0,0,0,0,0,0,0,0,0,0,0,0,0,0,0,0,0,0,0,0,0,0,0,0,0,0,0,1056,1031,1031,1031,1031,1031,1031,
0,0,0,0,0,0,0,0,0,0,0,0,0,0,0,0,0,0,0,0,0,0,0,0,0,0,0,0,0,0,0,0,0,0,0,0,0,0,0,0,0,0,0,0,0,0,0,1,0,0,0,0,0,0,0,0,0,0,0,0,0,0,0,0,0,0,0,0,0,0,0,444,315,0,0,0,0,0,0,0,0,0,0,0,1031,1031,1031,1031,1031,1031,
0,0,0,0,0,0,0,0,0,0,0,0,0,0,0,0,0,0,0,0,0,0,0,0,1,1,0,0,0,0,0,0,0,0,0,0,0,0,0,0,0,0,0,0,0,0,0,1090,1091,1089,0,0,0,0,0,0,0,0,0,0,0,0,0,0,0,370,371,372,373,374,375,471,342,0,0,0,0,0,0,0,0,0,0,0,0,1031,1031,1031,1031,1031,
0,0,0,0,0,0,0,0,0,0,0,0,0,0,0,0,0,0,0,0,0,0,0,0,0,0,0,0,0,0,0,0,0,0,0,0,0,0,0,0,0,0,0,0,0,0,0,0,0,0,0,0,0,0,0,0,0,0,0,0,0,0,0,0,0,397,398,399,400,401,402,1090,1091,1089,0,0,0,0,0,0,0,0,0,0,0,1056,1031,1031,1031,1031,
0,0,0,0,0,0,0,0,0,0,0,0,0,0,0,0,0,0,0,0,0,0,0,0,0,0,0,0,0,0,0,0,0,0,0,0,0,0,0,0,0,0,0,0,1,0,0,0,0,0,0,0,0,0,1090,1091,1091,1091,1091,1089,0,0,0,0,0,424,425,426,427,428,429,0,0,0,0,0,0,0,0,0,0,0,0,0,0,0,1056,1031,1031,1031,
0,0,0,0,0,0,0,0,0,0,0,0,0,0,0,0,0,0,0,0,0,0,0,0,0,0,0,0,0,0,0,0,0,0,0,0,0,0,0,0,0,0,0,0,0,0,0,0,0,0,0,0,0,0,0,0,0,0,0,0,0,0,0,0,0,451,452,453,454,455,456,0,0,0,0,0,0,0,0,0,0,0,0,0,0,0,0,1056,1031,1031,
0,0,0,0,0,0,0,0,0,0,0,0,0,0,0,0,0,0,0,0,0,0,0,0,0,0,0,0,0,0,0,0,0,0,0,0,0,0,0,0,0,2147484036,387,388,0,0,0,0,0,0,971,971,0,0,0,0,0,0,0,0,0,0,0,0,0,478,479,480,481,482,1054,1054,0,0,471,396,970,971,971,972,0,0,0,0,0,0,0,0,1056,1056,
0,0,0,0,0,0,0,0,0,0,0,0,0,0,0,0,0,0,0,0,0,0,0,0,0,0,0,0,0,0,0,0,0,0,0,0,0,0,0,0,0,2147484063,414,415,0,0,0,0,0,971,986,986,0,0,0,1053,1054,0,0,1053,1054,0,0,0,0,505,506,507,508,509,1054,1054,0,0,471,369,1160,1061,1061,987,0,0,0,0,0,0,0,0,0,988,
0,0,0,0,0,0,0,0,0,0,0,0,0,0,0,0,0,0,0,0,0,0,0,0,0,0,0,0,0,0,0,0,0,0,0,0,0,1,0,0,0,2147484090,441,442,0,0,0,0,970,986,986,986,0,1053,1053,1068,1069,1053,1054,1068,1069,0,0,0,970,971,971,971,971,2147484618,0,0,880,0,471,342,1105,1061,1061,971,971,2147484618,0,0,0,0,0,0,0,988,
0,0,0,0,0,0,0,0,0,0,0,0,0,0,0,0,0,0,0,0,0,0,0,0,0,0,0,0,0,0,0,0,0,0,0,0,0,0,0,0,0,806,806,806,0,971,971,971,971,986,986,986,0,1053,1053,1083,1084,1068,1069,1083,1,1,0,970,971,1085,1086,1086,986,971,971,972,880,0,498,369,1105,1061,1061,1061,1061,971,971,971,2147484618,1105,1105,1105,1105,988,
0,0,0,0,0,0,0,0,0,0,0,0,0,0,0,0,0,0,0,0,0,0,0,0,0,0,0,0,0,0,0,0,0,0,0,0,0,0,0,0,0,806,806,806,0,1031,986,986,986,986,986,986,444,315,970,2147484618,1083,1083,1084,970,971,971,971,971,986,1085,1085,1085,1085,1085,1086,987,1,0,471,396,1105,1160,1161,1161,1161,1162,1061,1061,971,2147484618,0,0,0,988,
0,0,0,0,0,0,0,0,0,0,0,0,0,0,0,0,0,0,0,0,0,0,0,0,0,0,0,0,0,0,0,0,0,0,0,0,0,0,0,0,0,0,0,0,0,1031,986,986,986,1160,1161,1162,471,342,985,971,971,971,971,971,986,1019,1085,1086,1086,1086,1086,1100,1100,1100,1101,971,2147484618,0,471,423,1105,1105,1105,1105,1105,1105,1061,1061,1061,971,2147484618,0,0,988,
0,0,0,0,0,0,137,138,0,0,0,0,0,0,0,0,0,0,0,0,0,0,0,0,0,0,0,0,0,0,0,0,0,0,0,0,0,0,0,0,0,0,0,0,0,1031,986,986,986,1105,1105,1105,498,369,985,986,1086,1086,1086,1085,1085,1085,1085,1085,1085,1085,1085,1085,1100,1101,1101,986,971,2147484618,471,450,1105,1105,1105,1105,1170,1171,1061,1061,1061,1061,971,2147484618,0,988,
0,0,0,0,0,0,164,165,0,0,0,0,0,0,0,0,0,0,0,0,0,0,0,0,0,0,0,0,0,0,0,0,0,0,0,0,0,0,0,0,0,0,0,0,0,1031,986,986,986,1105,1105,1105,498,342,985,1100,1101,1101,1101,1100,1100,1100,1100,1100,1100,1100,1100,1100,1100,1100,1100,1100,1101,2147484633,471,396,1105,1105,1105,1105,1185,1186,1061,1061,1061,1061,1061,2147484633,0,988,
0,0,0,0,0,0,0,0,0,0,0,0,0,0,0,0,0,0,0,0,0,0,0,0,0,0,0,0,0,0,0,0,0,0,0,0,0,0,0,0,0,0,0,0,0,0,0,0,0,0,0,0,0,0,0,0,0,0,0,0,0,0,0,0,0,0,0,0,0,0,0,0,0,0,0,0,0,387,388,971,0,0,0,0,0,0,0,0,0,0,
0,0,0,0,0,0,0,0,0,0,0,0,0,0,0,0,0,0,0,0,0,0,0,0,0,0,0,0,0,0,0,0,0,0,0,0,0,0,0,0,0,0,0,0,0,0,0,0,0,0,0,0,0,0,0,0,0,0,0,0,0,0,0,0,0,1028,0,0,1013,1014,0,1010,1011,0,1028,1029,0,414,415,1061,0,1010,1010,1010,1011,1013,1014,0,965,966,
0,0,0,0,0,0,0,0,0,0,0,0,0,0,0,0,0,0,0,0,0,0,0,0,0,0,0,0,0,0,0,0,0,0,0,0,0,0,0,0,0,0,0,0,0,0,0,0,0,0,0,0,0,0,0,0,0,0,0,0,0,0,0,0,0,0,0,0,1028,1029,0,1025,1026,0,965,966,0,441,442,1013,1014,1025,1025,1025,1010,1010,1011,0,980,981,
0,0,0,0,0,0,0,0,0,0,0,0,0,0,0,0,0,0,0,0,0,0,0,0,0,0,0,0,0,0,0,0,0,0,0,0,0,0,0,0,0,0,0,0,0,0,0,0,0,0,0,0,0,0,0,0,0,0,0,0,0,0,0,0,0,965,966,0,0,0,1028,1029,0,0,980,981,0,468,469,1028,1029,1028,1029,0,1025,1010,1011,0,0,0,
0,0,0,0,0,0,0,0,0,0,0,0,0,0,0,0,0,0,0,0,0,0,0,0,0,0,0,0,0,0,0,0,0,0,0,0,0,0,0,0,0,0,0,0,0,0,0,0,0,0,0,0,0,0,0,0,0,0,0,0,0,0,0,0,0,980,981,1010,1011,1011,0,0,0,0,0,0,0,495,496,1013,0,0,0,1028,0,1010,1011,1014,0,0,
0,0,0,0,0,0,0,0,0,0,0,0,0,0,0,0,0,0,0,0,0,0,0,0,0,0,0,0,0,0,0,0,0,0,0,0,0,0,0,0,0,0,0,0,0,0,0,0,0,0,0,0,0,0,0,0,0,0,0,0,0,0,0,0,1013,1014,0,1025,1026,1026,965,966,1010,1011,0,1013,1014,0,0,1028,1029,0,0,1010,1011,1011,1026,1029,0,0,
0,0,0,0,0,0,0,0,0,0,0,0,0,0,0,0,0,0,0,0,0,0,0,0,0,0,0,0,0,0,0,0,0,0,0,0,0,0,0,0,0,0,0,0,0,0,0,0,0,0,0,0,0,0,0,0,0,0,0,0,0,0,0,0,1028,1029,0,0,0,0,980,981,1025,1026,0,1028,1029,0,0,0,0,0,0,1025,1026,1026,0,0,0,0
</data>
 </layer>
 <objectgroup id="2" name="test">
  <object id="2" name="wall" x="4" y="1602" width="56" height="444"/>
  <object id="3" name="wall" x="66" y="1600" width="5630" height="62"/>
  <object id="4" name="wall" x="5696" y="1600" width="64" height="448"/>
  <object id="5" name="player" x="384" y="1538" width="64" height="64"/>
  <object id="6" name="wall" x="668" y="1472" width="264" height="128"/>
  <object id="15" name="ladder" x="807" y="1099" width="66" height="373"/>
  <object id="16" name="wall" x="896" y="1088" width="448" height="55"/>
  <object id="17" name="ladder" x="1703" y="951" width="66" height="139"/>
  <object id="18" name="ladder" x="1959" y="695" width="66" height="140"/>
  <object id="19" name="ladder" x="1702" y="249" width="66" height="265"/>
  <object id="20" name="ladder" x="3367" y="1352" width="66" height="250"/>
  <object id="21" name="wall" x="1436" y="192" width="264" height="64"/>
  <object id="22" name="wall" x="1436" y="256" width="228" height="54"/>
  <object id="26" name="wall" x="1216" y="768" width="192" height="54"/>
  <object id="27" name="wall" x="1728" y="951" width="192" height="55" rotation="180"/>
  <object id="28" name="wall" x="1857" y="1463" width="357" height="247" rotation="180"/>
  <object id="29" name="wall" x="1857" y="1600" width="65" height="137" rotation="180"/>
  <object id="30" name="wall" x="2368" y="1399" width="511" height="55" rotation="180"/>
  <object id="31" name="wall" x="2625" y="1529" width="192" height="57" rotation="180"/>
  <object id="32" name="wall" x="2468" y="1280" width="191" height="100" rotation="90"/>
  <object id="33" name="wall" x="2688" y="1280" width="192" height="62" rotation="90"/>
  <object id="34" name="wall" x="2625" y="1088" width="307" height="64" rotation="90"/>
  <object id="35" name="wall" x="2916" y="1024" width="256" height="99" rotation="90"/>
  <object id="36" name="wall" x="2880" y="1280" width="209" height="58"/>
  <object id="37" name="wall" x="3073" y="1217" width="81" height="63"/>
  <object id="38" name="wall" x="3136" y="1152" width="126" height="65"/>
  <object id="39" name="wall" x="3200" y="1088" width="63" height="64"/>
  <object id="40" name="wall" x="3265" y="1408" width="319" height="62" rotation="-90"/>
  <object id="41" name="wall" x="3056" y="1349" width="209" height="58"/>
  <object id="42" name="wall" x="3087" y="1408" width="207" height="53"/>
  <object id="43" name="wall" x="3077" y="1601" width="139" height="58" rotation="-90"/>
  <object id="44" name="wall" x="3459" y="1600" width="256" height="65" rotation="-90"/>
  <object id="45" name="wall" x="3524" y="1601" width="257" height="56" rotation="-90"/>
  <object id="46" name="wall" x="3581" y="1408" width="195" height="58"/>
  <object id="47" name="wall" x="3777" y="1600" width="256" height="62" rotation="-90"/>
  <object id="48" name="wall" x="3839" y="1344" width="193" height="58"/>
  <object id="49" name="wall" x="4032" y="1490" width="210" height="64" rotation="-90"/>
  <object id="50" name="wall" x="4097" y="1216" width="380" height="128"/>
  <object id="51" name="wall" x="4477" y="1489" width="209" height="103" rotation="-90"/>
  <object id="52" name="wall" x="4581" y="1600" width="191" height="88" rotation="-90"/>
  <object id="53" name="wall" x="4669" y="1600" width="128" height="63" rotation="-90"/>
  <object id="54" name="ladder" x="4775" y="1079" width="66" height="520"/>
  <object id="55" name="ladder" x="4582" y="766" width="66" height="130"/>
  <object id="56" name="wall" x="4864" y="1195" width="107" height="64" rotation="270"/>
  <object id="57" name="wall" x="4928" y="1216" width="128" height="164" rotation="-90"/>
  <object id="58" name="wall" x="4928" y="1402" width="186" height="317" rotation="-90"/>
  <object id="59" name="wall" x="5245" y="1601" width="321" height="131" rotation="-90"/>
  <object id="60" name="wall" x="5564" y="1600" width="128" height="64" rotation="-90"/>
  <object id="61" name="wall" x="5500" y="1537" width="129" height="64" rotation="-90"/>
  <object id="62" name="wall" x="5436" y="1472" width="128" height="64" rotation="-90"/>
  <object id="63" name="wall" x="5376" y="1411" width="131" height="60" rotation="-90"/>
  <object id="64" name="wall" x="5702" y="1600" width="448" height="58" rotation="-90"/>
  <object id="65" name="wall" x="4736" y="952" width="192" height="56" rotation="-180"/>
  <object id="66" name="wall" x="4543" y="633" width="192" height="54" rotation="-180"/>
  <object id="67" name="wall" x="3199" y="890" width="189" height="56" rotation="-180"/>
  <object id="68" name="wall" x="3458" y="959" width="380" height="63"/>
 </objectgroup>
</map>
