<?xml version="1.0" encoding="UTF-8"?>
<map version="1.5" tiledversion="1.7.2" orientation="orthogonal" renderorder="right-down" width="90" height="32" tilewidth="64" tileheight="64" infinite="0" nextlayerid="4" nextobjectid="333">
 <tileset firstgid="1" source="tiles_1.tsx"/>
 <tileset firstgid="226" source="spritesheet_24_snow.tsx"/>
 <tileset firstgid="451" source="enem1.tsx"/>
 <tileset firstgid="452" source="tile_3.tsx"/>
 <tileset firstgid="965" source="spritesheet_24.tsx"/>
 <layer id="1" name="Слой тайлов 1" width="90" height="32">
  <data encoding="csv">
1053,1054,1053,1053,1053,1053,1053,1053,1053,1053,1083,1083,1083,1098,1170,1170,1170,1083,1083,1083,1068,1068,1068,1053,1053,1053,366,366,366,1068,1068,1068,1068,1068,1068,1068,1053,1053,1053,1053,1053,1053,1053,1053,1053,1053,1054,1053,1053,1053,1054,1054,1054,1054,1054,1054,1054,1083,1083,1083,1083,1083,1098,1098,1098,1098,1098,1098,1083,1083,1083,1083,1083,1083,1068,1068,1068,1068,1053,1053,1053,1054,1054,1084,1084,1084,1069,1069,1069,1069,
1053,1054,1053,1068,1068,1068,1068,1068,1068,1068,1098,1098,1098,1113,1113,1113,1113,1098,1098,1098,1083,1083,1083,1068,1068,1068,1053,1053,1053,1083,1083,1083,1083,1083,1083,1083,1068,1068,1068,1068,1068,1068,1068,1068,1068,1068,1053,1053,1053,1054,1054,1069,1069,1069,1069,1069,1069,1098,1098,1098,1098,1098,1113,1113,1113,1113,1113,1113,1098,1098,1098,1098,1098,1098,1083,1083,1083,1083,1068,1068,1053,1054,1069,1054,1099,1099,1084,1084,1084,1084,
1053,1054,1053,1083,1083,1083,1083,1053,1054,1054,1113,1113,1113,1128,1128,1128,1128,1113,1113,1113,1098,1098,1098,1083,1083,1083,1068,1068,1068,1098,1098,1098,1098,1098,1098,1098,1083,1083,1083,1083,1083,1083,1083,1053,1054,1054,1054,1054,1054,1054,1053,1054,1053,1053,1053,1053,1053,1113,1113,1113,1113,1113,1128,1128,1128,1128,1128,1128,1113,1113,1113,1113,1113,1113,1098,1098,1098,1098,1083,1083,1053,1054,1084,1069,1068,1068,1068,1069,1099,1099,
1053,1054,1068,1098,1098,1053,1053,1054,1069,1069,1128,1128,1128,1143,1143,1143,1143,1128,1128,1128,1113,1113,2147483881,232,232,232,233,1083,1083,1113,1113,1113,1113,1113,1113,1113,1098,1098,1098,1098,1098,1098,1098,1068,1069,1069,1069,1069,1069,1069,1054,1054,1068,1068,1068,1068,1068,1128,1128,1128,1128,1128,1143,1143,1143,1143,1143,1143,1128,1128,1128,1128,1128,1128,1113,1113,1113,1113,1098,1098,1053,1053,1054,1084,1083,1083,1068,1068,1069,1114,
1053,1054,1083,1113,1113,1068,1068,1053,1053,1053,1143,1143,1143,1144,1114,1114,1099,1143,1143,1143,1128,1128,2147484071,422,422,422,788,788,1098,1128,1128,1128,1128,1128,1128,1170,1113,1113,1113,1113,1113,1113,1113,1083,1084,1084,1084,1084,1084,1084,1069,1069,1054,1054,1083,1083,1083,1143,1143,1143,1143,1143,1144,1129,1129,1129,1129,1129,1143,1143,1143,1143,1143,1143,1128,1128,1128,1128,1113,1113,1068,1068,1053,1054,1098,1098,1083,1068,1068,1069,
1053,1053,1098,1128,1128,1083,1053,1054,1054,1054,1143,1144,1144,1144,1129,1129,1114,1114,1099,1099,1143,1143,1143,1128,1128,1128,815,815,1113,1143,1143,1143,1143,1143,1143,1143,1128,1128,1128,1128,1128,1128,1128,1098,1099,1099,1099,1099,1099,1099,1084,1084,1069,1069,1098,1098,1098,1113,1113,1113,1143,1144,1144,1144,1144,1144,1144,1144,1144,1144,1144,1054,1084,1084,1143,1143,1143,1143,1128,1128,1083,1083,1068,1053,1054,1113,1098,1083,1068,1069,
1053,1053,1113,1143,1143,1098,1053,1053,1053,1053,1053,1053,1053,1143,1144,1144,1129,1129,1114,1114,1099,1084,1069,1143,1143,1143,788,788,1053,1053,1053,1143,1144,1144,1144,1129,1143,1143,1143,1143,1143,1143,1143,1113,1114,1114,1114,1114,1114,1114,1099,1099,1084,1084,1113,1113,1113,1128,1128,1128,1128,1128,1143,1143,1143,1143,1143,1143,1143,1144,1069,1069,1099,1099,1099,1099,1099,1099,1143,1143,1098,1098,1083,1068,1053,1054,1113,1098,1068,1069,
1068,1068,1128,1128,1128,1113,1068,1068,1068,1068,1068,1068,1068,1068,1068,1143,1144,1144,1129,1129,1114,1099,1084,1084,1069,1054,815,815,1068,1068,1068,1053,1053,1053,1143,1144,1129,1129,1114,1114,1114,1099,1099,1128,1129,1129,1129,1129,1129,1129,1114,1114,1099,1099,1128,1128,1128,1143,1143,1143,1143,1143,1144,1129,1129,1129,1129,1129,1129,1144,1084,1084,1114,1114,1114,1114,1114,1114,1114,1114,1113,1113,1098,1083,1068,1053,1054,1069,1068,1069,
1083,1083,1143,1143,1143,1128,1083,1083,1083,1083,1083,1083,1083,1083,1083,1083,1083,1143,1144,1144,1129,1114,1099,1099,1084,1069,1069,1069,1083,1083,1083,1068,1068,1068,1068,1143,1144,1144,1129,1129,1129,1114,1114,1143,1144,1144,1144,1144,1144,1144,1129,1129,1053,1053,1143,1143,1143,1144,1144,1144,1144,1144,1144,1144,1144,1144,1144,1144,1144,1099,1099,1099,1129,1129,1129,1129,1129,1129,1129,1129,1128,1128,1113,1098,1083,1068,1053,1054,1069,1069,
1098,1098,1098,1098,1143,1143,1098,1098,1098,1098,1098,1098,1098,1098,1098,1098,1098,1098,1098,1143,1144,1129,1114,1114,1099,1084,1084,1084,1098,1098,1098,1083,1083,1083,1083,1083,1083,1143,1144,1144,1144,1129,1129,1114,1114,1099,1099,1084,1084,1143,1144,1144,1054,1054,1054,1054,1054,1069,1113,1128,1143,1144,1084,1084,1069,1069,1069,1069,1069,1114,1114,1114,1144,1144,1144,1144,1144,1144,1144,1144,1143,1143,1128,1113,1053,1054,1054,1054,1054,1054,
1113,1113,1113,1113,1143,1144,1113,1113,1113,1113,1113,1113,1113,1113,1113,1113,1113,1113,1113,1113,1143,1144,1129,1129,1114,1099,1099,1099,1053,1053,1053,1053,1053,1053,1053,1053,1054,1113,1113,1113,1143,1144,1144,1129,1129,1114,1114,1099,1099,1099,1084,1084,1069,1069,1069,1069,1069,1054,1054,1143,1144,1099,1099,1099,1084,1053,1054,1054,1054,1054,1054,1054,1054,1054,1054,1054,1054,1054,1054,1054,1054,1054,1054,1054,1054,1069,1069,1069,1069,1069,
1128,1128,1128,1128,1143,1144,1128,1128,1128,1128,1128,1128,1128,1128,1128,1128,1128,1128,1128,1128,1128,1143,1144,1144,1129,1114,1114,1114,1068,1068,788,788,1068,1068,1068,1068,1069,1054,1128,1128,1128,1128,1143,1144,1144,1129,1129,1114,1114,1114,1099,1099,1084,1084,1084,1084,1084,1069,1069,1054,1054,1054,1054,1054,1054,1054,1069,1069,1069,1069,1069,1069,1069,1069,1069,1069,1069,1069,1069,1069,1069,1069,1069,1069,1069,1084,1084,1084,1084,1084,
1143,1143,1143,1143,1143,1144,1143,1143,1143,1143,1143,1143,1143,1143,1143,1143,1143,1143,1143,351,352,350,1128,1143,1144,1129,1129,1129,1083,1083,815,815,1083,1083,1083,1083,1084,1069,1054,1054,1054,1054,314,314,1143,314,314,1129,1129,1129,1114,1114,1099,1099,1099,1099,1099,1084,1084,1069,1069,1069,1069,1069,1069,1069,1084,1084,1084,1084,1084,1084,1084,1084,1084,1084,1084,1084,1084,1084,1084,1084,1084,1084,1084,1099,1099,1099,1099,1099,
1143,1144,1144,1068,1068,1069,1114,1114,1099,1099,1113,1113,1113,1113,1113,1113,1113,1113,1113,1113,1113,1113,1143,1143,1143,1144,1144,788,789,1098,1098,1098,1098,1098,1098,1098,1099,1084,366,366,366,314,314,314,314,314,314,314,1144,1144,1129,1129,1114,1114,1114,1114,1114,1099,1099,1084,1084,1084,1084,1084,1084,1084,1099,1099,1099,1099,1099,788,788,1099,1099,1099,1099,1099,1099,1099,1099,1099,1099,1099,1099,1114,1114,1114,1114,1114,
1128,1068,1069,1083,1068,1068,1068,1069,1114,1114,1128,1128,1128,1128,1128,1128,1128,1128,1128,1128,1128,1128,1128,1128,351,352,350,1129,1113,1113,1113,1113,1113,1113,1113,1113,1114,1099,366,366,366,314,314,314,314,314,314,1054,1054,1143,1144,1144,1129,1129,1129,1129,1129,1114,1114,1099,1099,1099,1099,1099,1099,1099,1114,1114,1114,1114,1114,1114,1114,1053,1053,1053,1053,1053,1053,1053,1054,1114,1114,1114,1114,1129,1129,1129,1129,1129,
1143,1083,1068,1068,1068,1068,1068,1068,1068,1069,1143,1143,1143,1143,1143,1143,1143,1143,1143,495,1143,1143,1143,1143,1143,1143,921,873,1128,1128,1128,820,821,822,823,824,825,1114,366,366,366,314,314,314,314,314,314,1069,1069,1054,1054,1054,1054,1054,1054,1054,1144,1129,1129,1114,1114,1114,1114,1114,1114,1114,1129,1129,1129,1129,1129,1129,1129,1068,1068,1068,1068,1068,1068,1053,1053,1053,1053,1053,1053,1054,1053,1054,1144,1144,
1143,1098,1083,1083,1083,1083,1083,1083,1083,1084,1143,1144,921,873,1144,1069,1143,1144,1144,522,1144,1144,1129,1129,1099,1099,948,900,1143,1143,1143,847,848,849,850,851,852,1129,366,366,366,314,314,314,232,233,1084,1084,1084,1069,1069,1069,1069,1069,1069,1069,1054,1054,1054,1054,1054,1054,1054,1054,1054,1054,1054,1054,1054,1054,1054,1054,1054,1054,1054,1054,1054,1054,1054,1054,1054,1054,1054,1054,1054,1053,1054,1054,1069,1069,
1068,1069,1098,1098,1098,1098,1098,1098,1098,1068,1113,1113,921,873,351,352,352,352,352,352,350,1113,1144,1144,1099,1099,1099,1113,1114,1114,1099,874,875,876,877,878,879,366,366,366,232,232,232,232,247,248,1099,1099,1099,1084,1084,1084,1084,1084,1084,1084,1069,1069,1069,1069,1069,1069,1069,1069,1069,1069,1069,1069,1069,1069,315,1069,1069,1069,1069,1069,1069,1069,1069,1069,1069,1069,1069,1069,1069,1054,1054,1054,1054,1054,
1068,1069,1113,1113,1113,1113,1113,1113,1113,1083,1113,1113,921,873,1113,1113,1113,1113,1113,1113,1113,1106,1106,1106,1099,1099,1099,1099,1113,1113,1114,901,902,903,904,905,906,366,366,366,354,274,275,354,247,248,1114,1114,1114,1099,1099,1099,1099,1099,1099,1099,1084,1084,1084,1084,1084,1084,1084,1084,1084,1084,1084,1084,1084,1084,315,315,1084,1084,1084,1084,1084,1084,1084,1084,1084,1084,1084,1084,1084,1069,1069,1069,1069,1054,
1068,820,821,822,823,824,825,1068,1069,1098,1113,1113,948,873,1113,1113,1113,1113,1113,1113,1113,1113,1099,2147483881,232,232,232,232,232,1106,1083,928,929,930,931,932,364,366,366,366,354,247,247,247,354,248,1129,1129,2147483881,1114,1114,1114,1114,1114,1114,820,821,822,823,824,825,1099,1099,1099,1099,1099,1099,1099,1099,1099,1099,1099,1099,1099,1099,1099,1099,1099,1099,1099,1099,1099,1099,1099,1099,1084,1084,1084,1084,1069,
1083,847,848,849,850,851,852,1068,1068,1113,1113,1114,921,873,1113,1113,641,642,643,644,1113,1113,1113,2147483896,274,275,354,247,354,1113,1098,955,956,957,958,959,960,232,233,366,354,247,247,226,227,248,1144,1144,1144,1129,1129,1129,1129,1129,1129,847,848,849,850,451,852,1114,1114,1114,1114,1114,1114,1114,1114,1114,1114,1114,1114,1114,1114,1114,1114,1114,1114,1114,1114,1114,1114,1114,1114,1099,1099,1099,1099,1084,
1098,874,875,876,877,878,879,1083,1083,1128,1113,1113,1038,1038,1113,1113,668,669,670,671,1113,1113,1113,2147483896,317,317,317,317,317,232,232,232,232,232,232,232,232,232,248,314,285,354,247,241,242,248,1104,1104,1143,1144,1144,1144,1144,1144,1144,874,875,876,877,878,879,1129,1129,1129,1129,1129,1129,1129,1129,1129,1129,1129,1129,1129,1129,1129,1129,1129,1129,1129,1129,1129,1129,1129,1129,1114,1114,1114,1114,1099,
1113,901,902,903,904,905,906,1098,1098,1143,1113,1113,1038,1038,1113,1113,695,696,697,698,1113,1113,1113,2147484071,422,423,421,422,317,354,274,275,354,247,247,354,247,354,248,366,366,247,247,354,354,248,1104,1104,1068,1068,1068,1069,1104,1104,1104,901,902,903,904,905,906,1144,1144,1144,1144,1144,1144,1144,1144,1144,1144,1144,1144,1144,1144,1144,1144,1144,1144,1144,1144,1144,1144,1144,1144,1129,1129,1129,1129,1114,
1128,928,929,930,931,932,933,1113,1113,1143,2147483881,232,232,232,233,1113,722,723,724,725,1113,1113,1113,314,1113,1113,1113,1113,317,247,247,247,247,354,274,275,247,247,232,232,232,247,354,274,275,248,1104,1104,1083,1083,1083,1084,1104,1104,1104,928,929,930,931,932,933,1143,1143,1143,1143,1144,1143,1143,1143,1143,1143,1144,1144,1144,1144,1144,1144,1144,1144,1144,1144,1144,1144,1143,1143,1144,1144,1144,1144,1129,
1143,955,956,957,958,959,1156,1156,1128,1143,2147484635,1028,965,966,248,1113,749,750,751,752,1113,1113,1113,314,1113,1113,1113,1113,317,354,247,354,247,354,354,354,247,354,247,354,274,275,354,354,354,248,1104,1104,1104,1104,1104,1104,763,763,1104,955,956,957,958,959,960,1144,1159,1159,1159,1159,1159,1159,1159,1159,1159,1159,1159,1159,1159,1159,1159,1159,1159,1159,1159,1159,1159,1159,1159,1143,1143,1143,1143,1144,
232,232,232,232,232,232,232,232,232,232,986,1014,980,981,986,232,232,232,232,232,232,232,232,232,232,232,232,232,250,250,250,250,250,250,250,250,250,250,250,250,250,250,250,250,250,232,232,232,232,232,232,232,232,232,232,232,232,232,232,232,232,232,232,232,232,232,232,232,232,232,232,232,232,232,232,232,232,232,232,232,232,232,232,232,232,232,232,232,232,232,
64,65,64,1013,1014,65,64,1013,64,65,64,65,64,65,64,65,64,1013,1014,65,64,65,1013,65,64,65,64,1013,1014,65,64,65,64,65,64,65,64,65,1013,1014,64,65,64,65,49,50,64,65,64,65,64,65,49,49,49,49,49,64,1,2,64,64,121,122,1055,1055,1136,1136,1136,1136,1136,1136,1136,1136,1136,1136,1136,1136,1136,1136,1136,1136,1136,1136,1136,1136,1136,1136,1136,1055,
121,122,64,122,1029,122,64,122,121,121,121,121,121,1,2,122,121,122,1029,122,121,4,4,122,64,122,1,2,1029,122,121,64,121,122,64,4,4,4,4,1029,1,2,3,4,5,46,47,48,46,47,47,121,122,46,46,47,48,46,16,17,122,47,136,137,1055,1055,1136,1136,1136,1136,1136,1136,1136,1136,1136,1136,1136,1136,1136,1136,1136,1136,1136,1136,1136,1136,1136,1136,1136,1055,
136,137,136,137,136,137,136,137,136,136,64,136,121,16,17,4,136,137,136,64,136,19,4,4,136,137,16,17,136,137,64,137,136,137,136,19,19,4,4,137,16,17,18,19,20,64,62,63,61,62,47,136,46,47,121,122,48,61,61,136,137,62,136,137,1055,1055,1136,1136,1136,1136,1136,1136,1136,1136,1136,1136,1136,1136,1136,1136,1136,1136,1136,1136,1136,1136,1136,1136,1136,1055,
121,122,121,1,2,122,64,122,121,122,121,122,121,4,121,19,4,122,1,2,121,122,19,4,4,121,122,121,122,121,19,4,4,4,4,122,19,19,19,122,31,32,33,121,122,121,122,48,61,1,2,62,46,47,136,64,63,121,122,61,61,62,136,137,1055,1055,1136,1136,1136,1136,1136,1136,1136,1136,1136,1136,1136,1136,1136,1136,1136,1136,1136,1136,1136,1136,1136,1136,1136,1055,
121,49,121,16,17,122,122,122,122,49,121,121,122,19,121,121,4,121,16,17,121,121,64,19,19,121,121,121,64,121,121,19,1,2,19,121,64,122,121,122,46,121,122,136,137,136,137,121,122,16,17,63,61,62,63,5,20,136,137,20,20,20,121,122,1055,1055,1055,1055,1055,1136,1136,1136,1055,1136,1055,1055,1055,1055,1055,1055,1055,1055,1055,1055,1055,1055,1055,1055,1085,1055,
136,137,136,137,137,137,137,64,137,137,136,136,49,136,136,136,19,136,136,136,136,136,136,136,137,136,136,136,136,136,136,136,16,17,136,136,136,137,136,64,61,136,137,63,20,20,64,136,137,35,35,20,20,20,20,20,35,35,35,35,35,35,136,137,1055,1055,1136,1136,1136,1136,1136,1136,1136,1136,1136,1136,1136,1136,1136,1136,1136,1136,1136,1136,1136,1136,1136,1136,1136,1136
</data>
 </layer>
 <layer id="2" name="Money" width="90" height="32">
  <data encoding="csv">
0,0,0,0,0,0,0,0,0,0,0,0,0,1170,1170,1170,1170,0,0,0,0,0,0,0,0,0,0,0,0,0,0,0,0,0,0,0,0,0,0,0,0,0,0,0,0,0,0,0,0,0,0,0,0,0,0,0,0,0,0,0,0,0,0,0,0,0,0,0,0,0,292,292,292,292,292,292,292,292,292,292,292,292,292,292,292,292,292,292,292,292,
0,0,0,0,0,0,0,0,0,0,0,0,0,0,0,0,0,0,0,0,0,0,0,0,0,0,0,0,0,0,0,0,0,0,0,0,0,0,0,0,0,0,0,0,0,0,0,0,0,0,0,0,0,0,0,0,0,0,0,0,0,0,0,0,0,0,0,0,0,0,0,0,292,292,292,292,292,292,292,292,292,292,292,292,292,292,292,292,292,292,
0,0,0,0,0,0,0,0,0,0,0,0,0,0,0,0,0,0,0,0,0,0,0,0,0,0,0,2147484413,765,0,0,0,0,0,0,0,0,0,0,0,0,0,0,0,0,0,0,0,0,0,0,0,0,0,0,0,0,0,0,0,0,0,0,0,0,0,0,0,0,0,0,0,0,0,292,292,292,292,292,292,292,292,292,292,292,292,292,292,292,292,
0,0,0,0,0,0,0,0,0,0,0,0,0,0,0,0,0,0,0,0,0,0,0,0,0,0,0,2147484467,846,0,0,0,0,0,0,0,0,0,0,0,0,0,0,0,0,0,0,0,0,0,0,0,0,0,0,0,0,0,0,0,0,0,0,0,0,0,0,0,0,0,0,0,0,0,0,292,292,292,292,292,292,292,292,292,292,292,292,292,292,292,
0,0,0,0,0,0,0,0,0,0,0,0,0,0,0,0,0,0,0,0,0,0,0,0,0,0,0,2147484467,846,0,0,0,0,0,0,0,0,0,0,0,0,0,0,0,0,0,0,0,0,0,0,0,0,0,0,0,0,0,0,0,0,0,0,0,0,0,0,0,0,0,0,0,0,0,0,0,292,292,292,292,292,292,292,292,292,292,292,292,292,292,
0,0,0,0,0,0,0,0,0,0,0,0,0,0,0,0,0,0,0,0,0,0,0,0,0,0,0,2147484467,846,0,0,0,0,0,0,0,0,0,0,0,0,0,0,0,0,0,0,0,0,0,0,0,0,0,0,0,0,0,0,0,0,0,0,0,0,0,0,0,0,0,0,0,0,0,0,0,0,0,292,292,292,292,292,292,292,292,292,292,292,292,
0,0,0,0,0,0,0,0,0,0,0,0,0,0,0,0,0,0,0,0,0,0,0,0,0,0,0,2147484494,846,0,0,0,0,0,0,0,0,0,0,0,0,0,0,0,0,0,0,0,0,0,0,0,0,0,0,0,0,0,0,0,0,0,0,0,0,0,0,0,0,0,0,0,0,0,0,0,0,0,0,292,292,292,292,292,292,292,292,292,292,292,
0,0,0,0,0,0,0,0,0,0,0,0,0,0,0,0,0,0,0,0,0,0,0,0,0,0,0,2147484521,846,0,0,0,0,0,0,0,0,0,0,0,0,0,0,0,0,0,0,0,0,0,0,0,0,0,0,0,0,0,0,0,0,0,0,0,0,0,0,0,0,0,0,0,0,0,0,0,0,0,0,0,292,292,292,292,292,292,292,292,292,292,
0,0,0,0,0,0,0,0,0,0,0,0,0,0,0,0,0,0,0,0,0,0,0,0,0,0,0,2147484548,846,0,0,0,0,0,0,0,0,0,0,0,0,0,0,0,0,0,0,0,0,0,0,0,0,0,0,0,0,0,0,0,0,0,0,0,0,0,0,0,0,0,0,788,788,0,0,0,0,0,0,0,0,292,292,292,292,292,292,292,292,292,
0,0,0,0,0,0,0,0,0,0,0,0,0,0,0,0,0,0,0,0,0,0,0,0,0,0,0,2147484575,846,0,0,0,0,0,0,0,0,0,0,0,0,0,0,0,0,0,0,0,0,0,0,0,0,0,0,0,0,0,0,0,0,0,0,0,0,0,0,0,351,352,350,788,788,0,894,765,0,0,0,0,0,0,292,292,292,292,292,292,292,292,
0,0,0,0,0,0,0,0,0,0,0,0,0,0,0,0,0,0,0,0,0,0,0,0,0,0,0,2147484602,846,0,0,0,0,0,0,0,0,0,0,0,0,0,0,0,0,0,0,0,0,0,0,0,0,0,0,0,0,0,0,0,0,0,0,0,0,0,0,0,0,0,0,894,765,0,921,792,1053,1053,1053,0,0,0,292,292,292,292,292,292,292,292,
0,0,0,0,0,0,0,0,0,0,0,0,0,0,0,0,0,0,0,0,0,0,0,0,0,0,0,2147484467,819,0,0,0,0,0,0,0,0,0,0,0,0,0,0,0,0,0,0,0,0,0,0,0,0,0,0,0,0,0,0,0,0,0,0,0,0,0,0,0,0,0,0,921,792,1053,1053,1053,1053,1053,1053,0,0,0,0,317,292,292,292,292,292,292,
0,0,0,0,0,0,0,0,0,0,0,0,0,0,0,0,0,0,0,0,0,0,0,0,0,0,0,2147484494,846,0,0,0,0,0,0,0,0,0,0,0,0,0,0,0,0,0,0,451,0,0,0,0,0,0,0,0,0,0,0,0,0,0,0,0,0,0,0,0,0,0,0,813,814,0,1053,1053,1053,1053,1053,1053,0,0,0,0,292,292,292,292,292,292,
0,0,0,0,0,0,0,0,0,0,0,0,0,0,0,0,0,0,0,0,0,0,0,0,451,451,0,2147484521,846,0,0,0,0,0,0,0,0,0,0,0,0,0,0,0,0,0,0,351,352,350,0,0,0,0,0,0,0,0,0,0,0,0,0,0,0,820,821,822,823,824,825,788,788,0,1053,1053,1053,1053,0,0,0,0,0,0,0,292,292,292,292,292,
0,0,0,0,0,0,0,0,0,0,0,0,0,0,0,0,0,0,0,0,0,0,0,0,0,0,0,2147484548,846,0,0,0,0,0,0,0,0,0,0,0,0,0,0,0,0,0,0,0,0,0,0,0,0,0,0,0,0,0,0,0,0,0,0,0,0,847,848,849,850,851,852,351,352,350,1053,0,0,1053,0,0,0,0,0,0,0,317,292,292,292,292,
0,0,0,0,0,0,0,0,0,0,0,0,0,0,0,0,0,0,0,0,0,0,0,0,0,0,797,2147484575,819,0,0,0,0,0,0,0,0,0,0,0,0,0,0,0,451,0,0,0,0,0,0,0,0,0,351,352,352,352,352,350,0,0,0,0,0,874,875,876,877,878,879,0,0,0,1053,1053,1053,1053,0,0,0,0,0,0,0,0,317,292,292,292,
0,0,0,0,0,0,0,0,0,0,0,0,0,0,0,0,0,0,0,0,0,0,0,0,0,0,797,2147484602,846,0,0,0,0,0,0,0,0,0,0,0,0,0,0,0,0,0,0,0,0,0,0,0,0,0,0,0,0,0,0,0,0,0,0,0,0,901,902,903,904,905,906,0,0,0,0,1053,1053,0,0,0,0,0,0,0,0,0,0,317,292,292,
0,0,0,0,0,0,0,0,0,0,0,0,0,0,0,0,0,0,0,0,0,0,0,0,0,0,0,0,0,0,0,0,0,0,0,0,0,0,0,0,0,2147484486,837,838,0,0,0,0,0,0,232,232,0,0,0,0,0,0,0,0,0,0,0,0,0,928,929,930,931,932,315,315,0,0,921,846,231,232,232,233,0,0,0,0,0,0,0,0,317,317,
0,0,0,0,0,0,0,0,0,0,0,0,0,0,0,0,0,0,0,0,0,0,0,0,0,0,0,0,0,0,0,0,0,0,0,0,0,0,0,0,0,2147484513,864,865,0,0,0,0,0,232,247,247,0,0,0,314,315,0,0,314,315,0,0,0,0,955,956,957,958,959,315,315,0,0,921,819,421,322,322,248,0,0,0,0,0,0,0,0,0,249,
0,0,0,0,0,0,0,0,0,0,0,0,0,0,0,0,0,0,0,0,0,0,0,0,0,0,0,0,0,0,0,0,0,0,0,0,0,451,0,0,0,2147484540,891,892,0,0,0,0,231,247,247,247,0,314,314,329,330,314,315,329,330,0,0,0,231,232,232,232,232,2147483879,0,0,1105,0,921,792,366,322,322,232,232,2147483879,0,0,0,0,0,0,0,249,
0,0,0,0,0,0,0,0,0,0,0,0,0,0,0,0,0,0,0,0,0,0,0,0,0,0,0,0,0,0,0,0,0,0,0,0,0,0,0,0,0,1031,1031,226,227,232,232,232,232,247,247,247,0,314,314,344,345,329,330,451,451,793,0,231,232,346,347,347,247,232,232,233,1105,0,948,819,366,322,322,322,322,232,232,232,2147483879,366,366,366,366,249,
0,0,0,0,0,0,0,0,0,0,0,0,0,0,0,0,0,0,0,0,0,0,0,0,0,0,0,0,0,0,0,0,0,0,0,0,0,0,0,0,0,1031,1031,241,242,292,247,247,247,247,247,247,894,765,231,2147483879,344,344,345,231,232,232,232,232,247,346,346,346,346,346,347,248,1038,0,921,846,366,421,422,422,422,423,322,322,232,2147483879,0,0,0,249,
0,0,0,0,0,0,0,0,1156,1156,0,0,0,0,0,0,0,0,0,0,0,0,0,0,0,0,0,0,0,0,0,0,0,0,0,0,0,0,0,0,0,0,0,0,0,292,247,247,247,421,422,423,921,792,246,232,232,232,232,232,247,280,346,347,347,347,347,361,361,361,362,232,2147483879,0,921,873,366,366,366,366,366,366,322,322,322,232,2147483879,0,0,249,
0,0,0,0,0,0,1156,1156,1156,1156,0,0,0,0,0,0,0,0,0,0,0,0,0,0,0,0,0,0,0,0,0,0,0,0,0,0,0,0,0,0,0,0,0,0,0,292,247,247,247,366,366,366,763,763,246,247,347,347,347,346,346,346,346,346,346,346,346,346,361,362,362,247,232,2147483879,788,788,366,366,366,366,431,432,322,322,322,322,232,2147483879,0,249,
0,0,0,0,0,0,1156,1156,1156,1156,0,0,0,0,0,0,0,0,0,0,0,0,0,0,0,0,0,0,0,0,0,0,0,0,0,0,0,0,0,0,0,0,0,0,0,292,247,247,247,366,366,366,763,763,246,361,362,362,362,361,361,361,361,361,361,361,361,361,361,361,361,361,362,2147483894,788,788,366,366,366,366,446,447,322,322,322,322,322,2147483894,0,249,
0,0,0,0,0,0,0,0,0,0,0,0,0,0,0,0,0,0,0,0,0,0,0,0,0,0,0,0,0,0,0,0,0,0,0,0,0,0,0,0,0,0,0,0,0,0,0,0,0,0,0,0,0,0,0,0,0,0,0,0,0,0,0,0,0,0,0,0,0,0,0,0,0,0,0,0,0,837,838,232,0,0,0,0,0,0,0,0,0,0,
0,0,0,0,0,0,0,0,0,0,0,0,0,0,0,0,0,0,0,0,0,0,0,0,0,0,0,0,0,0,0,0,0,0,0,0,0,0,0,0,0,0,0,0,0,0,0,0,0,0,0,0,0,0,0,0,0,0,0,0,0,0,0,0,0,289,0,0,274,275,0,271,272,0,289,290,0,864,865,322,0,271,271,271,272,274,275,0,226,227,
0,0,0,0,0,0,0,0,0,0,0,0,0,0,0,0,0,0,0,0,0,0,0,0,0,0,0,0,0,0,0,0,0,0,0,0,0,0,0,0,0,0,0,0,0,0,0,0,0,0,0,0,0,0,0,0,0,0,0,0,0,0,0,0,0,0,0,0,289,290,0,286,287,0,226,227,0,891,892,274,275,286,286,286,271,271,272,0,241,242,
0,0,0,0,0,0,0,0,0,0,0,0,0,0,0,0,0,0,0,0,0,0,0,0,0,0,0,0,0,0,0,0,0,0,0,0,0,0,0,0,0,0,0,0,0,0,0,0,0,0,0,0,0,0,0,0,0,0,0,0,0,0,0,0,0,226,227,0,0,0,289,290,0,0,241,242,0,918,919,289,290,289,290,0,286,271,272,0,0,0,
0,0,0,0,0,0,0,0,0,0,0,0,0,0,0,0,0,0,0,0,0,0,0,0,0,0,0,0,0,0,0,0,0,0,0,0,0,0,0,0,0,0,0,0,0,0,0,0,0,0,0,0,0,0,0,0,0,0,0,0,0,0,0,0,0,241,242,271,272,272,0,0,0,0,0,0,0,945,946,274,0,0,0,289,0,271,272,275,0,0,
0,0,0,0,0,0,0,0,0,0,0,0,0,0,0,0,0,0,0,0,0,0,0,0,0,0,0,0,0,0,0,0,0,0,0,0,0,0,0,0,0,0,0,0,0,0,0,0,0,0,0,0,0,0,0,0,0,0,0,0,0,0,0,0,274,275,0,286,287,287,226,227,271,272,0,274,275,0,0,289,290,0,0,271,272,272,287,290,0,0,
0,0,0,0,0,0,0,0,0,0,0,0,0,0,0,0,0,0,0,0,0,0,0,0,0,0,0,0,0,0,0,0,0,0,0,0,0,0,0,0,0,0,0,0,0,0,0,0,0,0,0,0,0,0,0,0,0,0,0,0,0,0,0,0,289,290,0,0,0,0,241,242,286,287,0,289,290,0,0,0,0,0,0,286,287,287,0,0,0,0
</data>
 </layer>
 <objectgroup id="3" name="test">
  <object id="250" name="wall" x="-348" y="1810" width="56" height="444"/>
  <object id="251" name="wall" x="64" y="1600" width="4862" height="62"/>
  <object id="252" name="wall" x="5694" y="1600" width="64" height="448"/>
  <object id="253" name="wall" x="666" y="1472" width="264" height="128"/>
  <object id="254" name="ladder" x="805" y="1020" width="66" height="325"/>
  <object id="255" name="wall" x="894" y="1088" width="448" height="55"/>
  <object id="256" name="ladder" x="3365" y="1352" width="66" height="120"/>
  <object id="257" name="wall" x="1214" y="768" width="192" height="54"/>
  <object id="258" name="ladder" x="4773" y="1079" width="66" height="393"/>
  <object id="259" name="wall" x="5700" y="1600" width="448" height="58" rotation="-90"/>
  <object id="260" name="shipp" x="2845" y="962">
   <polygon points="0.480769,35.1161 19.7115,62.5982 -17.7885,63.6161"/>
  </object>
  <object id="261" name="shipp" x="3037" y="768">
   <polygon points="0.480769,35.1161 19.7115,62.5982 -17.7885,63.6161"/>
  </object>
  <object id="262" name="shipp" x="1566" y="832">
   <polygon points="0.480769,35.1161 19.7115,62.5982 -17.7885,63.6161"/>
  </object>
  <object id="263" name="shipp" x="1628" y="832">
   <polygon points="0.480769,35.1161 19.7115,62.5982 -17.7885,63.6161"/>
  </object>
  <object id="264" name="shipp" x="2396" y="1216">
   <polygon points="0.480769,35.1161 19.7115,62.5982 -17.7885,63.6161"/>
  </object>
  <object id="265" name="shipp" x="3869" y="1281">
   <polygon points="0.480769,35.1161 19.7115,62.5982 -17.7885,63.6161"/>
  </object>
  <object id="266" name="shipp" x="3806" y="1280">
   <polygon points="0.480769,35.1161 19.7115,62.5982 -17.7885,63.6161"/>
  </object>
  <object id="267" name="wall" x="1502" y="1216" width="352" height="240"/>
  <object id="268" name="wall" x="1790" y="1456" width="64" height="144"/>
  <object id="269" name="wall" x="1854" y="1344" width="512" height="256"/>
  <object id="270" name="wall" x="2366" y="1280" width="96" height="192"/>
  <object id="271" name="wall" x="2430" y="1472" width="192" height="80"/>
  <object id="272" name="wall" x="2558" y="1088" width="64" height="256"/>
  <object id="273" name="wall" x="2622" y="1280" width="512" height="320"/>
  <object id="274" name="wall" x="2814" y="1024" width="96" height="256"/>
  <object id="275" name="wall" x="3070" y="1216" width="64" height="64"/>
  <object id="276" name="wall" x="3134" y="1152" width="64" height="304"/>
  <object id="277" name="wall" x="3198" y="1088" width="128" height="368"/>
  <object id="278" name="wall" x="3470" y="1344" width="112" height="256"/>
  <object id="279" name="wall" x="3582" y="1408" width="208" height="192"/>
  <object id="280" name="wall" x="3790" y="1344" width="240" height="256"/>
  <object id="281" name="wall" x="4030" y="1280" width="544" height="320"/>
  <object id="282" name="wall" x="4094" y="1216" width="384" height="64"/>
  <object id="283" name="wall" x="4574" y="1408" width="64" height="192"/>
  <object id="284" name="wall" x="4638" y="1472" width="80" height="128"/>
  <object id="285" name="wall" x="4862" y="1088" width="224" height="64"/>
  <object id="286" name="wall" x="4926" y="1152" width="160" height="192"/>
  <object id="287" name="wall" x="5086" y="1216" width="160" height="128"/>
  <object id="288" name="wall" x="5246" y="1280" width="192" height="320"/>
  <object id="289" name="wall" x="5438" y="1344" width="64" height="256"/>
  <object id="290" name="wall" x="5502" y="1408" width="64" height="192"/>
  <object id="291" name="wall" x="5566" y="1472" width="48" height="128"/>
  <object id="292" name="wall" x="4926" y="1344" width="320" height="48"/>
  <object id="293" name="wall" x="5166" y="1600">
   <polygon points="0,0 80,0 80,-64"/>
  </object>
  <object id="294" name="ladder" x="1758" y="128" width="64" height="962"/>
  <object id="295" name="wall" x="3006" y="832" width="192" height="64"/>
  <object id="296" name="wall" x="3454" y="960" width="384" height="64"/>
  <object id="297" name="wall" x="1534" y="896" width="192" height="48"/>
  <object id="298" name="wall" x="1438" y="192" width="256" height="64"/>
  <object id="299" name="wall" x="1438" y="256" width="256" height="48"/>
  <object id="300" name="liquid" x="2622" y="1136" width="192" height="144"/>
  <object id="301" name="liquid" x="4926" y="1648" width="128" height="272"/>
  <object id="302" name="wall" x="5054" y="1600" width="640" height="64"/>
  <object id="303" name="money" x="2574" y="1424" width="32" height="32"/>
  <object id="304" name="money" x="2510" y="1424" width="32" height="32"/>
  <object id="305" name="money" x="2574" y="1040" width="32" height="32"/>
  <object id="306" name="money" x="3006" y="1232" width="32" height="32"/>
  <object id="307" name="money" x="3166" y="1552" width="32" height="32"/>
  <object id="308" name="money" x="3230" y="1552" width="32" height="32"/>
  <object id="309" name="money" x="3630" y="912" width="32" height="32"/>
  <object id="310" name="money" x="1262" y="720" width="32" height="32"/>
  <object id="311" name="money" x="1502" y="144" width="32" height="32"/>
  <object id="312" name="money" x="1566" y="144" width="32" height="32"/>
  <object id="313" name="money" x="4414" y="528" width="32" height="32"/>
  <object id="314" name="money" x="4494" y="1232" width="32" height="32"/>
  <object id="315" name="money" x="4974" y="1456" width="32" height="32"/>
  <object id="316" name="money" x="5134" y="1168" width="32" height="32"/>
  <object id="317" name="money" x="5518" y="1360" width="32" height="32"/>
  <object id="318" name="money" x="4110" y="1008" width="32" height="32"/>
  <object id="319" name="money" x="3342" y="768" width="32" height="32"/>
  <object id="320" name="money" x="1006" y="1024" width="32" height="32"/>
  <object id="321" name="money" x="1070" y="1024" width="32" height="32"/>
  <object id="322" name="money" x="1598" y="1552" width="32" height="32"/>
  <object id="323" name="money" x="1662" y="1552" width="32" height="32"/>
  <object id="324" name="money" x="1630" y="1504" width="32" height="32"/>
  <object id="325" name="wall" x="4542" y="896" width="192" height="48"/>
  <object id="326" name="player" x="5294" y="1200" width="64" height="64"/>
  <object id="327" name="ladder" x="4590" y="640" width="48" height="128"/>
  <object id="328" name="ladder" x="4782" y="576" width="48" height="128"/>
  <object id="329" name="wall" x="4350" y="576" width="192" height="48"/>
  <object id="330" name="bandage" x="3678" y="1344" width="48" height="49"/>
  <object id="331" name="bandage" x="1966" y="1280" width="48" height="49"/>
  <object id="332" name="medkit" x="1518" y="64" width="63.6364" height="54.5455"/>
 </objectgroup>
</map>
